%
O05421 (ShaftSupportToolMartin)
(Using high feed G1 F5000. instead of G0.)
(T1 D=50. CR=0. TAPER=45deg - ZMIN=-1. - face mill)
(T5 D=12. CR=0.2 - ZMIN=-8. - bullnose end mill)
(T6 D=6.02 CR=0.2 - ZMIN=-11. - bullnose end mill)
(T7 D=3.3 CR=0. TAPER=118deg - ZMIN=-16. - drill)
(T8 D=4. CR=0. - ZMIN=-13. - right hand tap)
N10 G90 G17
N15 G21

(Face8)
N20 T1 M6
(OEHT 0604AEFR-FA M0315 - Inserts)
N25 S3800 M3
N30 G54
N35 M8
N40 G0 G43 Z15. H1 F5000.
N45 G1 X24.375 Y52.5
N50 T5
N55 G0 Z5.
N60 G1 Z4. F333.33
N65 G19 G2 Y47.5 Z-1. J-5. K0. F2850.
N70 G1 Y45.01
N75 Y-45.01
N80 G17 G2 X-8.4 I-16.387 J0.
N85 G1 Y45.01
N90 G19 G3 Y50.01 Z4. J0. K5.
N95 G0 Z15.
N100 M9
N105 M5

(Face8 2)
N110 M1
N115 T5 M6
(Designed to Cut Aluminium, reduced neck allows improved reach )
N120 S8000 M3
N125 G54
N130 M8
N135 G17
N140 G0 G43 Z15. H5 F5000.
N145 G1 X-35.089 Y-22.691
N150 T6
N155 G0 Z5.
N160 Z-0.6
N165 G1 Z-1.8 F2160.
N170 X-35.083 Y-22.686 Z-1.934
N175 X-35.067 Y-22.67 Z-2.067
N180 X-35.041 Y-22.644 Z-2.196
N185 X-35.005 Y-22.607 Z-2.321
N190 X-34.958 Y-22.562 Z-2.438
N195 X-34.903 Y-22.507 Z-2.548
N200 X-34.84 Y-22.443 Z-2.649
N205 X-34.769 Y-22.372 Z-2.738
N210 X-34.691 Y-22.295 Z-2.816
N215 X-34.607 Y-22.212 Z-2.881
N220 X-34.519 Y-22.124 Z-2.933
N225 X-34.428 Y-22.033 Z-2.97
N230 X-34.334 Y-21.939 Z-2.992
N235 X-34.239 Y-21.844 Z-3.
N240 G3 X-30.091 Y-16.71 I-21.62 J21.705
N245 G1 X-30.05 Y-16.641
N250 X-30.682 Y-15.526
N255 X-31.167 Y-14.339
N260 X-31.522 Y-13.108
N265 X-31.77 Y-11.85
N270 X-31.936 Y-10.579
N275 X-32.041 Y-9.302
N280 X-32.106 Y-8.021
N285 X-32.145 Y-6.74
N290 X-32.168 Y-5.459
N295 X-32.182 Y-4.177
N300 X-32.19 Y-2.895
N305 X-32.194 Y-1.613
N310 X-32.197 Y-0.332
N315 X-32.199 Y2.232
N320 X-32.2 Y8.641
N325 X-32.167 Y9.922
N330 X-31.842 Y11.163
N335 X-31.266 Y12.308
N340 X-30.483 Y13.322
N345 X-29.537 Y14.187
N350 X-28.467 Y14.894
N355 X-27.312 Y15.448
N360 X-26.099 Y15.864
N365 X-24.852 Y16.161
N370 X-23.587 Y16.364
N375 X-22.312 Y16.496
N380 X-21.033 Y16.579
N385 X-19.752 Y16.629
N390 X-18.47 Y16.659
N395 X-17.189 Y16.676
N400 X-15.907 Y16.686
N405 X-14.625 Y16.692
N410 X-13.343 Y16.696
N415 X-12.062 Y16.697
N420 X-8.216 Y16.7
N425 X25.111
N430 X26.367 Y16.446
N435 X27.539 Y15.927
N440 X28.588 Y15.19
N445 X29.49 Y14.28
N450 X30.235 Y13.237
N455 X30.826 Y12.099
N460 X31.274 Y10.898
N465 X31.598 Y9.658
N470 X31.822 Y8.396
N475 X31.969 Y7.123
N480 X32.062 Y5.844
N485 X32.119 Y4.564
N490 X32.153 Y3.282
N495 X32.173 Y2.001
N500 X32.184 Y0.719
N505 X32.191 Y-0.563
N510 X32.195 Y-1.845
N515 X32.198 Y-4.408
N520 X32.2 Y-9.535
N525 X31.963 Y-10.795
N530 X31.458 Y-11.973
N535 X30.733 Y-13.03
N540 X29.832 Y-13.941
N545 X28.795 Y-14.696
N550 X27.662 Y-15.296
N555 X26.464 Y-15.751
N560 X25.226 Y-16.082
N565 X23.965 Y-16.311
N570 X22.692 Y-16.462
N575 X21.414 Y-16.558
N580 X20.133 Y-16.616
N585 X18.852 Y-16.651
N590 X17.57 Y-16.672
N595 X16.289 Y-16.684
N600 X15.007 Y-16.691
N605 X13.725 Y-16.695
N610 X11.161 Y-16.698
N615 X6.034 Y-16.7
N620 X-0.375
N625 X-23.447
N630 X-24.724 Y-16.587
N635 X-25.947 Y-16.205
N640 X-27.07 Y-15.586
N645 X-28.062 Y-14.774
N650 X-28.904 Y-13.808
N655 X-29.593 Y-12.727
N660 X-30.134 Y-11.565
N665 X-30.542 Y-10.35
N670 X-30.837 Y-9.102
N675 X-31.041 Y-7.837
N680 X-31.176 Y-6.562
N685 X-31.263 Y-5.283
N690 X-31.317 Y-4.003
N695 X-31.351 Y-2.721
N700 X-31.371 Y-1.44
N705 X-31.383 Y-0.158
N710 X-31.39 Y1.124
N715 X-31.394 Y2.406
N720 X-31.396 Y3.687
N725 X-31.399 Y6.251
N730 X-31.385 Y7.533
N735 X-31.171 Y8.796
N740 X-30.743 Y10.005
N745 X-30.117 Y11.123
N750 X-29.319 Y12.127
N755 X-28.379 Y12.998
N760 X-27.326 Y13.729
N765 X-26.19 Y14.321
N770 X-24.995 Y14.786
N775 X-23.762 Y15.137
N780 X-22.506 Y15.391
N785 X-21.236 Y15.569
N790 X-19.96 Y15.689
N795 X-18.681 Y15.768
N800 X-17.4 Y15.819
N805 X-16.119 Y15.85
N810 X-14.837 Y15.87
N815 X-13.555 Y15.882
N820 X-12.273 Y15.889
N825 X-10.992 Y15.894
N830 X-9.71 Y15.896
N835 X-7.146 Y15.899
N840 X0.545 Y15.9
N845 X15.926
N850 X22.335
N855 X23.613 Y15.802
N860 X24.857 Y15.49
N865 X26.029 Y14.971
N870 X27.098 Y14.265
N875 X28.042 Y13.398
N880 X28.849 Y12.402
N885 X29.517 Y11.308
N890 X30.05 Y10.142
N895 X30.46 Y8.928
N900 X30.764 Y7.682
N905 X30.981 Y6.419
N910 X31.13 Y5.146
N915 X31.23 Y3.868
N920 X31.295 Y2.588
N925 X31.335 Y1.307
N930 X31.361 Y0.025
N935 X31.376 Y-1.256
N940 X31.386 Y-2.538
N945 X31.391 Y-3.82
N950 X31.395 Y-5.102
N955 X31.397 Y-6.384
N960 X31.366 Y-7.665
N965 X31.128 Y-8.924
N970 X30.678 Y-10.125
N975 X30.033 Y-11.233
N980 X29.219 Y-12.222
N985 X28.265 Y-13.079
N990 X27.203 Y-13.796
N995 X26.06 Y-14.376
N1000 X24.86 Y-14.827
N1005 X23.624 Y-15.167
N1010 X22.366 Y-15.413
N1015 X21.096 Y-15.584
N1020 X19.819 Y-15.699
N1025 X18.539 Y-15.775
N1030 X17.259 Y-15.823
N1035 X15.977 Y-15.853
N1040 X14.695 Y-15.871
N1045 X13.414 Y-15.883
N1050 X12.132 Y-15.89
N1055 X10.85 Y-15.894
N1060 X9.568 Y-15.896
N1065 X7.005 Y-15.899
N1070 X-1.968 Y-15.9
N1075 X-21.195
N1080 X-22.475 Y-15.825
N1085 X-23.726 Y-15.547
N1090 X-24.912 Y-15.062
N1095 X-26.003 Y-14.389
N1100 X-26.976 Y-13.554
N1105 X-27.816 Y-12.586
N1110 X-28.517 Y-11.513
N1115 X-29.084 Y-10.363
N1120 X-29.527 Y-9.16
N1125 X-29.862 Y-7.923
N1130 X-30.104 Y-6.664
N1135 X-30.275 Y-5.394
N1140 X-30.312 Y-4.986
N1145 X-30.324 Y-4.87
N1150 X-30.341 Y-4.755
N1155 X-30.362 Y-4.641
N1160 X-30.426 Y-4.318
N1165 X-30.489 Y-3.958
N1170 X-30.548 Y-3.598
N1175 X-30.633 Y-2.878
N1180 X-30.649 Y-2.519
N1185 X-30.65 Y-1.439
N1190 X-30.649 Y2.159
N1195 Y2.519
N1200 X-30.647 Y2.552
N1205 X-30.655 Y3.833
N1210 X-30.628 Y5.115
N1215 X-30.528 Y6.393
N1220 X-30.256 Y7.645
N1225 X-29.798 Y8.843
N1230 X-29.164 Y9.956
N1235 X-28.371 Y10.964
N1240 X-27.445 Y11.85
N1245 X-26.411 Y12.607
N1250 X-25.294 Y13.236
N1255 X-24.116 Y13.741
N1260 X-22.895 Y14.133
N1265 X-21.648 Y14.428
N1270 X-20.384 Y14.644
N1275 X-19.112 Y14.797
N1280 X-17.834 Y14.902
N1285 X-16.554 Y14.973
N1290 X-15.273 Y15.019
N1295 X-13.992 Y15.049
N1300 X-12.71 Y15.068
N1305 X-11.429 Y15.08
N1310 X-10.147 Y15.088
N1315 X-8.865 Y15.093
N1320 X-7.583 Y15.095
N1325 X-5.02 Y15.098
N1330 X1.389 Y15.1
N1335 X12.926
N1340 X19.335
N1345 X20.616 Y15.095
N1350 X21.895 Y15.
N1355 X23.148 Y14.731
N1360 X24.346 Y14.276
N1365 X25.461 Y13.643
N1370 X26.469 Y12.852
N1375 X27.357 Y11.927
N1380 X28.114 Y10.893
N1385 X28.74 Y9.774
N1390 X29.243 Y8.595
N1395 X29.635 Y7.375
N1400 X29.931 Y6.128
N1405 X29.982 Y5.934
N1410 X30.042 Y5.743
N1415 X30.111 Y5.555
N1420 X30.174 Y5.397
N1425 X30.354 Y4.677
N1430 X30.426 Y4.318
N1435 X30.489 Y3.958
N1440 X30.548 Y3.598
N1445 X30.633 Y2.878
N1450 X30.649 Y2.519
N1455 X30.65 Y1.439
N1460 X30.649 Y-2.159
N1465 Y-2.519
N1470 X30.647 Y-2.552
N1475 X30.655 Y-3.833
N1480 X30.626 Y-5.115
N1485 X30.524 Y-6.393
N1490 X30.252 Y-7.645
N1495 X29.793 Y-8.842
N1500 X29.159 Y-9.956
N1505 X28.366 Y-10.963
N1510 X27.44 Y-11.849
N1515 X26.406 Y-12.607
N1520 X25.289 Y-13.235
N1525 X24.111 Y-13.74
N1530 X22.89 Y-14.132
N1535 X21.643 Y-14.428
N1540 X20.38 Y-14.644
N1545 X19.107 Y-14.797
N1550 X17.829 Y-14.902
N1555 X16.55 Y-14.973
N1560 X15.269 Y-15.019
N1565 X13.987 Y-15.049
N1570 X12.706 Y-15.068
N1575 X11.424 Y-15.08
N1580 X10.142 Y-15.088
N1585 X8.86 Y-15.092
N1590 X7.578 Y-15.095
N1595 X5.015 Y-15.098
N1600 X-1.394 Y-15.1
N1605 X-12.93
N1610 X-19.339
N1615 X-20.62 Y-15.04
N1620 X-21.883 Y-14.822
N1625 X-23.101 Y-14.422
N1630 X-24.245 Y-13.844
N1635 X-25.29 Y-13.102
N1640 X-26.219 Y-12.219
N1645 X-27.021 Y-11.219
N1650 X-27.694 Y-10.128
N1655 X-28.242 Y-8.969
N1660 X-28.366 Y-8.674
N1665 X-28.52 Y-8.393
N1670 X-28.702 Y-8.13
N1675 X-28.797 Y-8.008
N1680 X-28.863 Y-7.916
N1685 X-29.085 Y-7.556
N1690 X-29.301 Y-7.196
N1695 X-29.517 Y-6.818
N1700 X-29.708 Y-6.476
N1705 X-29.876 Y-6.141
N1710 X-30.066 Y-5.67
N1715 X-30.174 Y-5.397
N1720 X-30.354 Y-4.677
N1725 X-30.362 Y-4.641
N1730 X-30.365 Y-4.631 Z-2.999
N1735 G2 X-30.674 Y-3.769 Z-2.902 I9.723 J3.977
N1740 X-30.727 Y-3.461 Z-2.868 I1.146 J0.356
N1745 G1 X-30.753 Y-2.817 Z-2.8
N1750 X-30.893 Y0.703
N1755 X-30.918 Y1.342 Z-2.868
N1760 G2 X-30.89 Y1.653 Z-2.901 I1.199 J0.048
N1765 X-30.65 Y2.537 Z-2.998 I10.248 J-2.307
N1770 G1 X-30.647 Y2.552 Z-3.
N1775 X-30.633 Y2.878
N1780 X-30.548 Y3.598
N1785 X-30.489 Y3.958
N1790 X-30.426 Y4.318
N1795 X-30.354 Y4.677
N1800 X-30.174 Y5.397
N1805 X-30.031 Y5.757
N1810 X-29.876 Y6.141
N1815 X-29.861 Y6.172
N1820 X-29.344 Y7.345
N1825 X-28.727 Y8.468
N1830 X-27.972 Y9.504
N1835 X-27.09 Y10.435
N1840 X-26.101 Y11.249
N1845 X-25.023 Y11.944
N1850 X-23.879 Y12.52
N1855 X-22.684 Y12.986
N1860 X-21.456 Y13.352
N1865 X-20.205 Y13.63
N1870 X-18.939 Y13.836
N1875 X-17.666 Y13.984
N1880 X-16.389 Y14.088
N1885 X-15.109 Y14.16
N1890 X-13.828 Y14.209
N1895 X-12.547 Y14.241
N1900 X-11.265 Y14.262
N1905 X-9.983 Y14.276
N1910 X-8.701 Y14.285
N1915 X-7.42 Y14.29
N1920 X-6.138 Y14.294
N1925 X-3.574 Y14.298
N1930 X1.553 Y14.3
N1935 X16.935
N1940 X18.216 Y14.299
N1945 X19.498 Y14.276
N1950 X20.773 Y14.142
N1955 X22.021 Y13.848
N1960 X23.216 Y13.385
N1965 X24.332 Y12.755
N1970 X25.349 Y11.974
N1975 X26.251 Y11.064
N1980 X27.031 Y10.047
N1985 X27.115 Y9.907
N1990 X27.296 Y9.635
N1995 X27.503 Y9.383
N2000 X27.735 Y9.152
N2005 X28.077 Y8.843
N2010 X28.275 Y8.635
N2015 X28.437 Y8.459
N2020 X28.59 Y8.275
N2025 X28.797 Y8.008
N2030 X28.863 Y7.916
N2035 X29.085 Y7.556
N2040 X29.301 Y7.196
N2045 X29.517 Y6.818
N2050 X29.708 Y6.476
N2055 X29.876 Y6.141
N2060 X30.031 Y5.757
N2065 X30.111 Y5.555
N2070 X30.125 Y5.535 Z-2.997
N2075 X30.146 Y5.522 Z-2.995
N2080 G2 X31.669 Y4.524 Z-2.8 I-1.621 J-4.137
N2085 X32.596 Y3.164 I-3.145 J-3.139
N2090 X32.694 Y2.763 I-1.1 J-0.48
N2095 G1 X32.84 Y0.571
N2100 G2 X32.796 Y0.161 I-1.197 J-0.08
N2105 X32.05 Y-1.32 I-4.271 J1.224
N2110 X30.68 Y-2.501 Z-2.993 I-3.525 J2.705
N2115 G1 X30.657 Y-2.522 Z-2.997
N2120 X30.647 Y-2.552 Z-3.
N2125 X30.633 Y-2.878
N2130 X30.548 Y-3.598
N2135 X30.489 Y-3.958
N2140 X30.426 Y-4.318
N2145 X30.354 Y-4.677
N2150 X30.174 Y-5.397
N2155 X30.031 Y-5.757
N2160 X29.876 Y-6.141
N2165 X29.861 Y-6.172
N2170 X29.344 Y-7.345
N2175 X28.726 Y-8.468
N2180 X27.97 Y-9.503
N2185 X27.089 Y-10.434
N2190 X26.099 Y-11.248
N2195 X25.022 Y-11.943
N2200 X23.877 Y-12.519
N2205 X22.683 Y-12.985
N2210 X21.454 Y-13.351
N2215 X20.203 Y-13.63
N2220 X18.938 Y-13.836
N2225 X17.665 Y-13.984
N2230 X16.387 Y-14.088
N2235 X15.107 Y-14.16
N2240 X13.827 Y-14.208
N2245 X12.545 Y-14.241
N2250 X11.264 Y-14.262
N2255 X9.982 Y-14.276
N2260 X8.7 Y-14.285
N2265 X7.418 Y-14.29
N2270 X6.136 Y-14.294
N2275 X3.573 Y-14.298
N2280 X-1.554 Y-14.3
N2285 X-16.936
N2290 X-18.218 Y-14.287
N2295 X-19.496 Y-14.191
N2300 X-20.754 Y-13.949
N2305 X-21.97 Y-13.54
N2310 X-23.114 Y-12.964
N2315 X-24.166 Y-12.232
N2320 X-25.113 Y-11.367
N2325 X-25.462 Y-10.969
N2330 X-25.703 Y-10.722
N2335 X-25.968 Y-10.502
N2340 X-26.255 Y-10.31
N2345 X-26.277 Y-10.297
N2350 X-26.587 Y-10.075
N2355 X-27.062 Y-9.715
N2360 X-27.357 Y-9.473
N2365 X-27.497 Y-9.355
N2370 X-27.717 Y-9.168
N2375 X-27.908 Y-8.995
N2380 X-27.935 Y-8.982 Z-2.997
N2385 G2 X-29.677 Y-8.36 Z-2.8 I1.848 J7.929
N2390 X-32.148 Y-6.488 I3.591 J7.306
N2395 X-32.445 Y-5.841 I0.893 J0.801
N2400 G1 X-33.452 Y1.963
N2405 G2 X-33.329 Y2.665 I1.19 J0.154
N2410 X-31.409 Y5.107 I7.243 J-3.718
N2415 X-29.887 Y6.146 Z-2.996 I5.322 J-6.16
N2420 G1 X-29.872 Y6.157 Z-2.998
N2425 X-29.861 Y6.172 Z-3.
N2430 X-29.708 Y6.476
N2435 X-29.506 Y6.836
N2440 X-29.301 Y7.196
N2445 X-29.085 Y7.556
N2450 X-28.863 Y7.916
N2455 X-28.797 Y8.008
N2460 X-28.59 Y8.275
N2465 X-28.437 Y8.459
N2470 X-28.275 Y8.635
N2475 X-28.077 Y8.843
N2480 X-27.717 Y9.168
N2485 X-27.497 Y9.355
N2490 X-27.357 Y9.473
N2495 X-27.062 Y9.715
N2500 X-26.587 Y10.075
N2505 X-26.277 Y10.297
N2510 X-25.917 Y10.511
N2515 X-25.557 Y10.69
N2520 X-24.409 Y11.259
N2525 X-23.227 Y11.755
N2530 X-22.014 Y12.171
N2535 X-20.778 Y12.509
N2540 X-19.524 Y12.776
N2545 X-18.259 Y12.981
N2550 X-16.986 Y13.135
N2555 X-15.709 Y13.247
N2560 X-14.43 Y13.327
N2565 X-13.149 Y13.384
N2570 X-11.868 Y13.422
N2575 X-10.587 Y13.449
N2580 X-9.305 Y13.466
N2585 X-8.023 Y13.478
N2590 X-6.742 Y13.486
N2595 X-5.46 Y13.491
N2600 X-4.178 Y13.494
N2605 X-1.614 Y13.498
N2610 X3.513 Y13.5
N2615 X16.331
N2620 X17.613 Y13.488
N2625 X18.892 Y13.406
N2630 X20.156 Y13.196
N2635 X21.385 Y12.831
N2640 X22.553 Y12.304
N2645 X23.642 Y11.628
N2650 X23.758 Y11.537
N2655 X24.038 Y11.341
N2660 X24.337 Y11.174
N2665 X24.652 Y11.039
N2670 X24.837 Y10.971
N2675 X25.557 Y10.69
N2680 X25.917 Y10.511
N2685 X26.277 Y10.297
N2690 X26.587 Y10.075
N2695 X27.062 Y9.715
N2700 X27.357 Y9.473
N2705 X27.497 Y9.355
N2710 X27.717 Y9.168
N2715 X27.735 Y9.152
N2720 X27.761 Y9.139 Z-2.997
N2725 G2 X29.505 Y8.52 Z-2.8 I-1.877 J-8.052
N2730 X32.04 Y6.606 I-3.621 J-7.432
N2735 X32.335 Y5.971 I-0.893 J-0.801
N2740 G1 X33.422 Y-1.851
N2745 G2 X33.312 Y-2.543 I-1.189 J-0.165
N2750 X31.39 Y-5.08 I-7.427 J3.631
N2755 X29.886 Y-6.147 Z-2.996 I-5.506 J6.167
N2760 G1 X29.872 Y-6.158 Z-2.998
N2765 X29.861 Y-6.172 Z-3.
N2770 X29.708 Y-6.476
N2775 X29.506 Y-6.836
N2780 X29.301 Y-7.196
N2785 X29.085 Y-7.556
N2790 X28.863 Y-7.916
N2795 X28.797 Y-8.008
N2800 X28.59 Y-8.275
N2805 X28.437 Y-8.459
N2810 X28.275 Y-8.635
N2815 X28.077 Y-8.843
N2820 X27.717 Y-9.168
N2825 X27.497 Y-9.355
N2830 X27.357 Y-9.473
N2835 X27.062 Y-9.715
N2840 X26.587 Y-10.075
N2845 X26.277 Y-10.297
N2850 X25.917 Y-10.511
N2855 X25.557 Y-10.69
N2860 X24.409 Y-11.259
N2865 X23.227 Y-11.755
N2870 X22.014 Y-12.17
N2875 X20.778 Y-12.508
N2880 X19.524 Y-12.775
N2885 X18.259 Y-12.981
N2890 X16.986 Y-13.135
N2895 X15.709 Y-13.247
N2900 X14.43 Y-13.327
N2905 X13.149 Y-13.384
N2910 X11.868 Y-13.422
N2915 X10.587 Y-13.448
N2920 X9.305 Y-13.466
N2925 X8.023 Y-13.478
N2930 X6.741 Y-13.486
N2935 X5.46 Y-13.491
N2940 X4.178 Y-13.494
N2945 X1.614 Y-13.498
N2950 X-3.513 Y-13.5
N2955 X-15.049
N2960 X-16.331 Y-13.495
N2965 X-17.612 Y-13.439
N2970 X-18.882 Y-13.273
N2975 X-20.126 Y-12.96
N2980 X-21.318 Y-12.49
N2985 X-22.446 Y-11.881
N2990 X-22.505 Y-11.843
N2995 X-22.84 Y-11.654
N3000 X-23.194 Y-11.505
N3005 X-23.564 Y-11.398
N3010 X-23.757 Y-11.355
N3015 X-24.477 Y-11.104
N3020 X-24.837 Y-10.971
N3025 X-25.197 Y-10.83
N3030 G3 X-25.968 Y-10.822 I-0.398 J-1.132
N3035 G1 X-26.096 Y-10.864 Z-2.992
N3040 X-26.222 Y-10.905 Z-2.97
N3045 X-26.345 Y-10.946 Z-2.933
N3050 X-26.463 Y-10.984 Z-2.881
N3055 X-26.575 Y-11.021 Z-2.816
N3060 X-26.679 Y-11.055 Z-2.738
N3065 X-26.775 Y-11.086 Z-2.649
N3070 X-26.86 Y-11.114 Z-2.548
N3075 X-26.934 Y-11.139 Z-2.438
N3080 X-26.996 Y-11.159 Z-2.321
N3085 X-27.045 Y-11.175 Z-2.196
N3090 X-27.08 Y-11.186 Z-2.067
N3095 X-27.102 Y-11.194 Z-1.934
N3100 X-27.109 Y-11.196 Z-1.8
N3105 G0 Z5.
N3110 G1 X-27.523 Y10.817 F5000.
N3115 G0 Z-0.6
N3120 G1 Z-1.8 F2160.
N3125 X-27.516 Y10.816 Z-1.934
N3130 X-27.494 Y10.812 Z-2.067
N3135 X-27.457 Y10.806 Z-2.196
N3140 X-27.406 Y10.797 Z-2.321
N3145 X-27.342 Y10.787 Z-2.438
N3150 X-27.265 Y10.774 Z-2.548
N3155 X-27.177 Y10.76 Z-2.649
N3160 X-27.078 Y10.743 Z-2.738
N3165 X-26.969 Y10.725 Z-2.816
N3170 X-26.853 Y10.706 Z-2.881
N3175 X-26.73 Y10.686 Z-2.933
N3180 X-26.603 Y10.665 Z-2.97
N3185 X-26.472 Y10.643 Z-2.992
N3190 X-26.339 Y10.621 Z-3.
N3195 G3 X-25.557 Y10.69 I0.258 J1.561
N3200 G1 X-24.837 Y10.971
N3205 X-24.477 Y11.104
N3210 X-23.757 Y11.355
N3215 X-23.397 Y11.436
N3220 X-23.037 Y11.514
N3225 X-22.677 Y11.555
N3230 X-21.408 Y11.735
N3235 X-20.138 Y11.908
N3240 X-18.868 Y12.079
N3245 X-17.595 Y12.228
N3250 X-16.319 Y12.35
N3255 X-15.041 Y12.446
N3260 X-13.761 Y12.519
N3265 X-12.48 Y12.573
N3270 X-11.199 Y12.612
N3275 X-9.917 Y12.639
N3280 X-8.636 Y12.659
N3285 X-7.354 Y12.672
N3290 X-6.072 Y12.682
N3295 X-4.791 Y12.688
N3300 X-3.509 Y12.692
N3305 X-0.945 Y12.697
N3310 X2.9 Y12.699
N3315 X14.436 Y12.7
N3320 X15.718 Y12.695
N3325 X16.999 Y12.65
N3330 X18.274 Y12.515
N3335 X19.527 Y12.244
N3340 X20.743 Y11.839
N3345 X21.122 Y11.71
N3350 X21.514 Y11.631
N3355 X21.913 Y11.604
N3360 X21.923 Y11.605
N3365 G2 X22.175 Y11.642 I0.549 J-2.866
N3370 X22.463 Y11.637 I0.122 J-1.194
N3375 G1 X22.693 Y11.605
N3380 X23.04 Y11.556
N3385 X23.274 Y11.524
N3390 G2 X23.552 Y11.45 I-0.166 J-1.189
N3395 X23.785 Y11.346 I-1.08 J-2.711
N3400 G1 X23.79 Y11.343
N3405 X24.477 Y11.104
N3410 X24.652 Y11.039
N3415 G3 X25.424 Y11.047 I0.375 J1.14
N3420 G1 X25.55 Y11.091 Z-2.992
N3425 X25.676 Y11.135 Z-2.97
N3430 X25.798 Y11.178 Z-2.933
N3435 X25.915 Y11.219 Z-2.881
N3440 X26.026 Y11.258 Z-2.816
N3445 X26.13 Y11.294 Z-2.738
N3450 X26.224 Y11.327 Z-2.649
N3455 X26.309 Y11.357 Z-2.548
N3460 X26.383 Y11.382 Z-2.438
N3465 X26.444 Y11.404 Z-2.321
N3470 X26.493 Y11.421 Z-2.196
N3475 X26.528 Y11.433 Z-2.067
N3480 X26.549 Y11.441 Z-1.934
N3485 X26.556 Y11.443 Z-1.8
N3490 G0 Z5.
N3495 G1 X27.523 Y-10.817 F5000.
N3500 G0 Z-0.6
N3505 G1 Z-1.8 F2160.
N3510 X27.516 Y-10.816 Z-1.934
N3515 X27.494 Y-10.812 Z-2.067
N3520 X27.457 Y-10.806 Z-2.196
N3525 X27.406 Y-10.797 Z-2.321
N3530 X27.342 Y-10.787 Z-2.438
N3535 X27.265 Y-10.774 Z-2.548
N3540 X27.177 Y-10.76 Z-2.649
N3545 X27.078 Y-10.743 Z-2.738
N3550 X26.969 Y-10.725 Z-2.816
N3555 X26.853 Y-10.706 Z-2.881
N3560 X26.73 Y-10.686 Z-2.933
N3565 X26.603 Y-10.665 Z-2.97
N3570 X26.472 Y-10.643 Z-2.992
N3575 X26.339 Y-10.621 Z-3.
N3580 G3 X25.557 Y-10.69 I-0.258 J-1.561
N3585 G1 X24.837 Y-10.971
N3590 X24.477 Y-11.104
N3595 X23.757 Y-11.355
N3600 X23.397 Y-11.436
N3605 X23.037 Y-11.514
N3610 X22.677 Y-11.555
N3615 X21.408 Y-11.735
N3620 X20.138 Y-11.908
N3625 X18.868 Y-12.079
N3630 X17.595 Y-12.228
N3635 X16.319 Y-12.35
N3640 X15.041 Y-12.446
N3645 X13.761 Y-12.519
N3650 X12.48 Y-12.573
N3655 X11.199 Y-12.612
N3660 X9.917 Y-12.639
N3665 X8.636 Y-12.659
N3670 X7.354 Y-12.672
N3675 X6.072 Y-12.682
N3680 X4.791 Y-12.688
N3685 X3.509 Y-12.692
N3690 X0.945 Y-12.697
N3695 X-2.9 Y-12.699
N3700 X-13.155 Y-12.7
N3705 X-14.436 Y-12.698
N3710 X-15.718 Y-12.67
N3715 X-16.996 Y-12.568
N3720 X-18.258 Y-12.347
N3725 X-19.493 Y-12.002
N3730 X-20.137 Y-11.774
N3735 X-20.496 Y-11.671
N3740 X-20.864 Y-11.615
N3745 X-21.237 Y-11.605
N3750 X-21.957 Y-11.604
N3755 X-22.317 Y-11.587
N3760 X-22.677 Y-11.555
N3765 X-23.041 Y-11.514
N3770 X-23.397 Y-11.436
N3775 X-23.564 Y-11.398
N3780 G3 X-24.328 Y-11.506 I-0.224 J-1.179
N3785 G1 X-24.448 Y-11.566 Z-2.992
N3790 X-24.566 Y-11.626 Z-2.97
N3795 X-24.682 Y-11.684 Z-2.933
N3800 X-24.793 Y-11.74 Z-2.881
N3805 X-24.898 Y-11.793 Z-2.816
N3810 X-24.996 Y-11.842 Z-2.738
N3815 X-25.086 Y-11.887 Z-2.649
N3820 X-25.166 Y-11.928 Z-2.548
N3825 X-25.235 Y-11.963 Z-2.438
N3830 X-25.294 Y-11.992 Z-2.321
N3835 X-25.34 Y-12.015 Z-2.196
N3840 X-25.373 Y-12.032 Z-2.067
N3845 X-25.393 Y-12.042 Z-1.934
N3850 X-25.4 Y-12.046 Z-1.8
N3855 G0 Z5.
N3860 G1 X-24.531 Y12.223 F5000.
N3865 G0 Z-0.6
N3870 G1 Z-1.8 F2160.
N3875 X-24.524 Y12.22 Z-1.934
N3880 X-24.504 Y12.21 Z-2.067
N3885 X-24.47 Y12.194 Z-2.196
N3890 X-24.424 Y12.172 Z-2.321
N3895 X-24.365 Y12.144 Z-2.438
N3900 X-24.295 Y12.111 Z-2.548
N3905 X-24.214 Y12.072 Z-2.649
N3910 X-24.123 Y12.029 Z-2.738
N3915 X-24.024 Y11.981 Z-2.816
N3920 X-23.918 Y11.931 Z-2.881
N3925 X-23.806 Y11.877 Z-2.933
N3930 X-23.689 Y11.821 Z-2.97
N3935 X-23.569 Y11.764 Z-2.992
N3940 X-23.448 Y11.706 Z-3.
N3945 G3 X-22.677 Y11.555 I0.682 J1.428
N3950 G1 X-22.317 Y11.587
N3955 X-21.957 Y11.604
N3960 X-21.237 Y11.605
N3965 X-20.518 Y11.579
N3970 X-20.485 Y11.575
N3975 X-20.252 Y11.559
N3980 X-19.941 Y11.54
N3985 X-19.493 Y11.525
N3990 X-18.855 Y11.52
N3995 X-17.574 Y11.543
N4000 X-16.293 Y11.597
N4005 X-15.013 Y11.657
N4010 X-13.732 Y11.713
N4015 X-12.451 Y11.759
N4020 X-10.93 Y11.802
N4025 X-9.648 Y11.83
N4030 X-8.367 Y11.85
N4035 X-7.085 Y11.865
N4040 X-5.803 Y11.876
N4045 X-4.521 Y11.884
N4050 X-3.239 Y11.889
N4055 X-1.958 Y11.892
N4060 X0.606 Y11.897
N4065 X4.451 Y11.899
N4070 X12.142 Y11.9
N4075 X13.424 Y11.899
N4080 X14.706 Y11.887
N4085 X15.986 Y11.831
N4090 X17.26 Y11.685
N4095 X18.477 Y11.456
N4100 X18.887 Y11.406
N4105 X19.301 Y11.407
N4110 X19.712 Y11.46
N4115 X19.798 Y11.476
N4120 X20.158 Y11.536
N4125 X20.518 Y11.579
N4130 X21.237 Y11.605
N4135 X21.913 Y11.604
N4140 G3 X22.635 Y11.876 I-0.039 J1.199
N4145 G1 X22.739 Y11.961 Z-2.992
N4150 X22.842 Y12.045 Z-2.97
N4155 X22.942 Y12.127 Z-2.933
N4160 X23.038 Y12.206 Z-2.881
N4165 X23.129 Y12.28 Z-2.816
N4170 X23.214 Y12.35 Z-2.738
N4175 X23.291 Y12.414 Z-2.649
N4180 X23.361 Y12.47 Z-2.548
N4185 X23.421 Y12.52 Z-2.438
N4190 X23.471 Y12.561 Z-2.321
N4195 X23.511 Y12.594 Z-2.196
N4200 X23.54 Y12.617 Z-2.067
N4205 X23.557 Y12.632 Z-1.934
N4210 X23.563 Y12.636 Z-1.8
N4215 G0 Z5.
N4220 G1 X24.531 Y-12.223 F5000.
N4225 G0 Z-0.6
N4230 G1 Z-1.8 F2160.
N4235 X24.524 Y-12.22 Z-1.934
N4240 X24.504 Y-12.21 Z-2.067
N4245 X24.47 Y-12.194 Z-2.196
N4250 X24.424 Y-12.172 Z-2.321
N4255 X24.365 Y-12.144 Z-2.438
N4260 X24.295 Y-12.111 Z-2.548
N4265 X24.214 Y-12.072 Z-2.649
N4270 X24.123 Y-12.029 Z-2.738
N4275 X24.024 Y-11.981 Z-2.816
N4280 X23.918 Y-11.931 Z-2.881
N4285 X23.806 Y-11.877 Z-2.933
N4290 X23.689 Y-11.821 Z-2.97
N4295 X23.569 Y-11.764 Z-2.992
N4300 X23.448 Y-11.706 Z-3.
N4305 G3 X22.677 Y-11.555 I-0.682 J-1.428
N4310 G1 X22.317 Y-11.587
N4315 X21.957 Y-11.604
N4320 X21.237 Y-11.605
N4325 X20.518 Y-11.579
N4330 X20.485 Y-11.575
N4335 X20.251 Y-11.559
N4340 X19.941 Y-11.54
N4345 X19.493 Y-11.525
N4350 X18.856 Y-11.52
N4355 X17.574 Y-11.543
N4360 X16.293 Y-11.597
N4365 X15.013 Y-11.657
N4370 X13.732 Y-11.713
N4375 X12.452 Y-11.759
N4380 X11.17 Y-11.797
N4385 X9.889 Y-11.825
N4390 X8.607 Y-11.847
N4395 X7.325 Y-11.863
N4400 X6.044 Y-11.874
N4405 X4.762 Y-11.882
N4410 X3.48 Y-11.888
N4415 X2.198 Y-11.892
N4420 X-0.365 Y-11.896
N4425 X-4.211 Y-11.899
N4430 X-11.421 Y-11.9
N4435 X-12.703 Y-11.899
N4440 X-13.984 Y-11.883
N4445 X-15.264 Y-11.817
N4450 X-16.537 Y-11.668
N4455 X-17.797 Y-11.43
N4460 X-17.854 Y-11.418
N4465 X-18.38 Y-11.344
N4470 X-18.911 Y-11.341
N4475 X-19.438 Y-11.407
N4480 X-19.798 Y-11.476
N4485 X-20.158 Y-11.536
N4490 X-20.518 Y-11.579
N4495 X-21.237 Y-11.605
N4500 G3 X-22.348 Y-12.888 Z-2.8 I0.086 J-1.197
N4505 X-21.15 Y-14.002 I1.197 J0.085
N4510 G1 X20.303 Y-13.961
N4515 G3 X21.487 Y-12.943 I-0.001 J1.2
N4520 X20.485 Y-11.575 Z-3. I-1.186 J0.182
N4525 G1 X20.158 Y-11.536
N4530 X19.798 Y-11.476
N4535 X19.438 Y-11.407
N4540 X19.329 Y-11.373
N4545 X18.995 Y-11.288
N4550 X18.842 Y-11.253
N4555 X18.658 Y-11.216
N4560 X18.432 Y-11.177
N4565 X18.16 Y-11.136
N4570 X17.829 Y-11.096
N4575 X17.41 Y-11.056
N4580 X16.843 Y-11.017
N4585 X16.035 Y-10.982
N4590 X14.754 Y-10.96
N4595 X13.472 Y-10.967
N4600 X12.19 Y-10.986
N4605 X10.909 Y-11.008
N4610 X9.627 Y-11.028
N4615 X8.345 Y-11.046
N4620 X7.064 Y-11.06
N4625 X5.782 Y-11.071
N4630 X4.5 Y-11.079
N4635 X3.218 Y-11.085
N4640 X1.936 Y-11.09
N4645 X-0.627 Y-11.095
N4650 X-4.473 Y-11.098
N4655 X-10.721 Y-11.1
N4660 X-12.003 Y-11.094
N4665 X-13.285 Y-11.065
N4670 X-14.564 Y-10.982
N4675 X-16.462 Y-10.773
N4680 X-16.672 Y-10.756
N4685 X-17.149 Y-10.75
N4690 X-17.622 Y-10.814
N4695 X-18.08 Y-10.945
N4700 X-18.718 Y-11.178
N4705 X-19.078 Y-11.296
N4710 X-19.438 Y-11.407
N4715 G3 X-20.18 Y-12.932 Z-2.8 I0.392 J-1.134
N4720 X-19.045 Y-13.741 I1.135 J0.391
N4725 G1 X18.938 Y-13.708
N4730 G3 X20.071 Y-12.898 I-0.001 J1.2
N4735 X19.329 Y-11.373 Z-3. I-1.135 J0.391
N4740 G1 X19.078 Y-11.296
N4745 X18.718 Y-11.178
N4750 X17.998 Y-10.915
N4755 X17.915 Y-10.886
N4760 X17.773 Y-10.838
N4765 X17.616 Y-10.791
N4770 X17.447 Y-10.744
N4775 X17.242 Y-10.693
N4780 X16.99 Y-10.638
N4785 X16.702 Y-10.582
N4790 X16.382 Y-10.528
N4795 X15.978 Y-10.472
N4800 X15.488 Y-10.416
N4805 X14.853 Y-10.36
N4810 X13.978 Y-10.306
N4815 X12.697 Y-10.261
N4820 X11.416 Y-10.245
N4825 X10.134
N4830 X8.852 Y-10.251
N4835 X6.288 Y-10.268
N4840 X5.007 Y-10.275
N4845 X3.725 Y-10.281
N4850 X2.443 Y-10.286
N4855 X-0.12 Y-10.293
N4860 X-2.684 Y-10.296
N4865 X-4.607 Y-10.298
N4870 X-5.243 Y-10.22
N4875 X-5.865 Y-10.066
N4880 X-6.464 Y-9.838
N4885 X-7.03 Y-9.538
N4890 X-7.556 Y-9.172
N4895 X-8.034 Y-8.744
N4900 X-8.087 Y-8.684
N4905 X-8.916 Y-7.707
N4910 X-9.98 Y-8.421
N4915 X-11.143 Y-8.962
N4920 X-12.367 Y-9.34
N4925 X-13.627 Y-9.579
N4930 X-14.9 Y-9.727
N4935 X-15.272 Y-9.766
N4940 X-15.666 Y-9.831
N4945 X-16.05 Y-9.944
N4950 X-16.416 Y-10.102
N4955 X-16.761 Y-10.304
N4960 G3 X-17.035 Y-11.978 Z-2.8 I0.701 J-0.974
N4965 X-16.087 Y-12.477 I0.975 J0.7
N4970 G1 X17.481 Y-13.21
N4975 G3 X18.603 Y-12.499 I0.026 J1.2
N4980 X17.998 Y-10.915 Z-3. I-1.096 J0.489
N4985 G1 X17.701 Y-10.794
N4990 X17.278 Y-10.599
N4995 X17.101 Y-10.509
N5000 X16.84 Y-10.39
N5005 X16.701 Y-10.333
N5010 X16.559 Y-10.28
N5015 X16.403 Y-10.226
N5020 X16.228 Y-10.171
N5025 X16.015 Y-10.109
N5030 X15.781 Y-10.048
N5035 X15.516 Y-9.987
N5040 X15.187 Y-9.919
N5045 X14.805 Y-9.851
N5050 X14.378 Y-9.786
N5055 X13.829 Y-9.716
N5060 X13.167 Y-9.651
N5065 X12.261 Y-9.584
N5070 X10.981 Y-9.523
N5075 X9.7 Y-9.494
N5080 X8.418 Y-9.481
N5085 X7.136 Y-9.477
N5090 X5.854 Y-9.478
N5095 X0.727 Y-9.49
N5100 X-1.836 Y-9.495
N5105 X-3.112 Y-9.367
N5110 X-4.35 Y-9.034
N5115 X-4.935 Y-8.772
N5120 X-6.032 Y-8.11
N5125 X-6.941 Y-7.206
N5130 X-7.659 Y-6.145
N5135 X-8.193 Y-4.979
N5140 X-8.553 Y-3.749
N5145 X-8.805 Y-2.492
N5150 X-8.916 Y-1.861
N5155 X-8.951 Y-1.677
N5160 X-8.984 Y-1.526
N5165 X-9.029 Y-1.343
N5170 X-9.089 Y-1.124
N5175 X-9.132 Y-0.98
N5180 X-9.18 Y-0.838
N5185 X-9.237 Y-0.699
N5190 X-9.299 Y-0.563
N5195 X-9.365 Y-0.428
N5200 X-9.447 Y-0.302
N5205 X-9.536 Y-0.182
N5210 X-9.643 Y-0.077
N5215 X-9.768 Y0.024
N5220 X-9.798 Y0.05
N5225 X-9.873 Y0.056
N5230 X-9.91 Y0.05
N5235 X-9.945 Y0.037
N5240 X-9.975 Y0.015
N5245 X-9.799 Y-1.255
N5250 X-9.874 Y-2.535
N5255 X-10.233 Y-3.765
N5260 X-10.834 Y-4.897
N5265 X-11.629 Y-5.903
N5270 X-12.569 Y-6.774
N5275 X-13.609 Y-7.524
N5280 X-13.892 Y-7.723
N5285 X-14.146 Y-7.957
N5290 X-14.368 Y-8.222
N5295 X-14.407 Y-8.275
N5300 X-14.758 Y-8.669
N5305 X-15.091 Y-8.995
N5310 X-15.118 Y-9.02
N5315 X-15.478 Y-9.334
N5320 X-15.933 Y-9.715
N5325 X-16.198 Y-9.927
N5330 X-16.761 Y-10.304
N5335 G3 X-17.035 Y-11.978 Z-2.8 I0.701 J-0.974
N5340 X-16.071 Y-12.478 I0.975 J0.7
N5345 G1 X16.506 Y-12.756
N5350 G3 X17.564 Y-12.141 I0.01 J1.2
N5355 X17.101 Y-10.509 Z-3. I-1.048 J0.585
N5360 G1 X16.957 Y-10.434
N5365 X16.481 Y-10.116
N5370 X16.259 Y-9.983
N5375 X16.127 Y-9.912
N5380 X15.992 Y-9.846
N5385 X15.855 Y-9.784
N5390 X15.717 Y-9.726
N5395 X15.55 Y-9.661
N5400 X15.378 Y-9.599
N5405 X15.169 Y-9.529
N5410 X14.945 Y-9.461
N5415 X14.686 Y-9.39
N5420 X14.373 Y-9.313
N5425 X14.049 Y-9.242
N5430 X13.64 Y-9.163
N5435 X13.163 Y-9.084
N5440 X12.62 Y-9.008
N5445 X11.934 Y-8.93
N5450 X11.05 Y-8.853
N5455 X9.829 Y-8.779
N5460 X8.548 Y-8.734
N5465 X7.266 Y-8.71
N5470 X5.985 Y-8.698
N5475 X4.703 Y-8.692
N5480 X3.421 Y-8.69
N5485 X0.857 Y-8.692
N5490 X-0.424 Y-8.673
N5495 X-1.692 Y-8.482
N5500 X-2.9 Y-8.053
N5505 X-4.009 Y-7.411
N5510 X-4.991 Y-6.588
N5515 X-5.835 Y-5.623
N5520 X-6.543 Y-4.554
N5525 X-7.14 Y-3.42
N5530 X-7.668 Y-2.252
N5535 X-7.851 Y-1.861
N5540 X-7.992 Y-1.576
N5545 X-8.107 Y-1.359
N5550 X-8.201 Y-1.194
N5555 X-8.287 Y-1.05
N5560 X-8.37 Y-0.92
N5565 X-8.454 Y-0.795
N5570 X-8.541 Y-0.673
N5575 X-8.631 Y-0.553
N5580 X-8.726 Y-0.437
N5585 X-8.824 Y-0.324
N5590 X-8.929 Y-0.216
N5595 X-9.039 Y-0.115
N5600 X-9.164 Y-0.015
N5605 X-9.281 Y0.08
N5610 X-9.405 Y0.164
N5615 X-9.537 Y0.234
N5620 X-9.687 Y0.239
N5625 X-9.835 Y0.214
N5630 X-9.902 Y0.18
N5635 X-9.962 Y0.135
N5640 X-10.053 Y0.016
N5645 X-10.382 Y-1.223
N5650 X-10.847 Y-2.418
N5655 X-11.469 Y-3.539
N5660 X-12.22 Y-4.577
N5665 X-12.384 Y-4.768
N5670 X-12.602 Y-5.052
N5675 X-12.788 Y-5.359
N5680 X-12.939 Y-5.683
N5685 X-13.114 Y-6.117
N5690 X-13.295 Y-6.476
N5695 X-13.493 Y-6.836
N5700 X-13.678 Y-7.16
N5705 X-14.144 Y-7.916
N5710 X-14.368 Y-8.222
N5715 G3 X-14.047 Y-9.888 Z-2.8 I0.994 J-0.673
N5720 X-13.464 Y-10.091 I0.673 J0.993
N5725 G1 X15.69 Y-12.287
N5730 G3 X16.755 Y-11.791 I0.09 J1.197
N5735 X16.481 Y-10.116 Z-3. I-0.975 J0.7
N5740 G1 X16.198 Y-9.927
N5745 X15.933 Y-9.715
N5750 X15.904 Y-9.691
N5755 X15.716 Y-9.55
N5760 X15.591 Y-9.466
N5765 X15.463 Y-9.389
N5770 X15.332 Y-9.316
N5775 X15.198 Y-9.247
N5780 X15.063 Y-9.183
N5785 X14.907 Y-9.113
N5790 X14.743 Y-9.045
N5795 X14.55 Y-8.971
N5800 X14.344 Y-8.898
N5805 X14.105 Y-8.819
N5810 X13.84 Y-8.741
N5815 X13.541 Y-8.66
N5820 X13.188 Y-8.574
N5825 X12.809 Y-8.493
N5830 X12.321 Y-8.401
N5835 X11.814 Y-8.319
N5840 X11.158 Y-8.23
N5845 X10.405 Y-8.149
N5850 X9.392 Y-8.065
N5855 X8.112 Y-7.992
N5860 X6.831 Y-7.949
N5865 X5.55 Y-7.924
N5870 X4.268 Y-7.91
N5875 X2.986 Y-7.902
N5880 X1.704 Y-7.892
N5885 X0.429 Y-7.759
N5890 X-0.81 Y-7.434
N5895 X-1.984 Y-6.919
N5900 X-3.067 Y-6.234
N5905 X-4.047 Y-5.407
N5910 X-4.92 Y-4.469
N5915 X-5.702 Y-3.453
N5920 X-6.425 Y-2.394
N5925 X-6.827 Y-1.8
N5930 X-7.072 Y-1.457
N5935 X-7.261 Y-1.207
N5940 X-7.416 Y-1.012
N5945 X-7.58 Y-0.816
N5950 X-7.717 Y-0.662
N5955 X-7.848 Y-0.522
N5960 X-7.96 Y-0.407
N5965 X-8.068 Y-0.303
N5970 X-8.178 Y-0.201
N5975 X-8.292 Y-0.103
N5980 X-8.791 Y0.299
N5985 X-8.854 Y0.348
N5990 X-8.917 Y0.398
N5995 X-9.062 Y0.437
N6000 X-9.209 Y0.464
N6005 X-9.358 Y0.485
N6010 X-9.508 Y0.479
N6015 X-9.656 Y0.454
N6020 X-9.798 Y0.407
N6025 X-9.929 Y0.334
N6030 X-10.043 Y0.237
N6035 X-10.135 Y0.118
N6040 X-10.251 Y-0.053
N6045 X-10.948 Y-1.129
N6050 X-11.634 Y-2.212
N6055 X-12.002 Y-2.752
N6060 X-12.236 Y-3.154
N6065 X-12.412 Y-3.585
N6070 X-12.525 Y-4.037
N6075 X-12.599 Y-4.456
N6080 X-12.642 Y-4.677
N6085 X-12.723 Y-5.037
N6090 X-12.824 Y-5.397
N6095 X-12.939 Y-5.683
N6100 G3 X-12.955 Y-6.454 I1.128 J-0.409
N6105 G1 X-12.914 Y-6.582 Z-2.992
N6110 X-12.874 Y-6.709 Z-2.97
N6115 X-12.835 Y-6.832 Z-2.933
N6120 X-12.798 Y-6.951 Z-2.881
N6125 X-12.762 Y-7.063 Z-2.816
N6130 X-12.729 Y-7.168 Z-2.738
N6135 X-12.699 Y-7.263 Z-2.649
N6140 X-12.671 Y-7.349 Z-2.548
N6145 X-12.648 Y-7.423 Z-2.438
N6150 X-12.628 Y-7.485 Z-2.321
N6155 X-12.613 Y-7.534 Z-2.196
N6160 X-12.601 Y-7.57 Z-2.067
N6165 X-12.595 Y-7.591 Z-1.934
N6170 X-12.592 Y-7.598 Z-1.8
N6175 G0 Z5.
N6180 G1 X16.742 Y-11.475 F5000.
N6185 G0 Z-0.6
N6190 G1 Z-1.8 F2160.
N6195 X16.739 Y-11.467 Z-1.934
N6200 X16.732 Y-11.446 Z-2.067
N6205 X16.719 Y-11.411 Z-2.196
N6210 X16.702 Y-11.362 Z-2.321
N6215 X16.68 Y-11.301 Z-2.438
N6220 X16.654 Y-11.228 Z-2.548
N6225 X16.624 Y-11.143 Z-2.649
N6230 X16.591 Y-11.049 Z-2.738
N6235 X16.554 Y-10.945 Z-2.816
N6240 X16.515 Y-10.834 Z-2.881
N6245 X16.474 Y-10.717 Z-2.933
N6250 X16.43 Y-10.595 Z-2.97
N6255 X16.386 Y-10.47 Z-2.992
N6260 X16.341 Y-10.343 Z-3.
N6265 G3 X15.904 Y-9.691 I-1.492 J-0.528
N6270 G1 X15.478 Y-9.334
N6275 X15.28 Y-9.161
N6280 X15.188 Y-9.089
N6285 X15.072 Y-8.994
N6290 X14.952 Y-8.903
N6295 X14.828 Y-8.819
N6300 X14.701 Y-8.739
N6305 X14.572 Y-8.664
N6310 X14.44 Y-8.592
N6315 X14.306 Y-8.524
N6320 X14.171 Y-8.46
N6325 X14.034 Y-8.398
N6330 X13.896 Y-8.34
N6335 X13.757 Y-8.284
N6340 X13.617 Y-8.23
N6345 X13.476 Y-8.179
N6350 X13.334 Y-8.13
N6355 X13.191 Y-8.083
N6360 X13.048 Y-8.039
N6365 X12.904 Y-7.996
N6370 X12.76 Y-7.955
N6375 X12.615 Y-7.915
N6380 X12.47 Y-7.878
N6385 X12.325 Y-7.842
N6390 X12.179 Y-7.807
N6395 X12.032 Y-7.774
N6400 X11.886 Y-7.742
N6405 X11.739 Y-7.711
N6410 X11.592 Y-7.682
N6415 X11.444 Y-7.654
N6420 X11.297 Y-7.627
N6425 X11.149 Y-7.601
N6430 X10.853 Y-7.552
N6435 X10.556 Y-7.507
N6440 X10.259 Y-7.466
N6445 X9.962 Y-7.428
N6450 X9.664 Y-7.393
N6455 X9.366 Y-7.361
N6460 X9.067 Y-7.332
N6465 X8.768 Y-7.305
N6470 X8.469 Y-7.28
N6475 X8.02 Y-7.247
N6480 X7.571 Y-7.218
N6485 X7.12 Y-7.192
N6490 X6.651 Y-7.169
N6495 X6.087 Y-7.145
N6500 X5.619 Y-7.128
N6505 X5.048 Y-7.11
N6510 X3.767 Y-7.073
N6515 X2.489 Y-6.978
N6520 X1.229 Y-6.739
N6525 X0.012 Y-6.337
N6530 X-1.142 Y-5.78
N6535 X-2.22 Y-5.087
N6540 X-3.216 Y-4.28
N6545 X-4.136 Y-3.387
N6550 X-5.001 Y-2.441
N6555 X-5.335 Y-2.06
N6560 X-5.634 Y-1.724
N6565 X-5.835 Y-1.502
N6570 X-6.039 Y-1.281
N6575 X-6.142 Y-1.172
N6580 X-6.246 Y-1.064
N6585 X-6.35 Y-0.957
N6590 X-6.562 Y-0.744
N6595 X-6.669 Y-0.639
N6600 X-6.776 Y-0.534
N6605 X-6.885 Y-0.431
N6610 X-6.995 Y-0.329
N6615 X-7.106 Y-0.228
N6620 X-7.219 Y-0.129
N6625 X-7.334 Y-0.033
N6630 X-7.45 Y0.061
N6635 X-7.57 Y0.152
N6640 X-7.692 Y0.239
N6645 X-7.818 Y0.321
N6650 X-8.344 Y0.687
N6655 X-8.583 Y0.901
N6660 X-8.639 Y0.958
N6665 X-8.789
N6670 X-8.939 Y0.951
N6675 X-9.088 Y0.936
N6680 X-9.236 Y0.912
N6685 X-9.382 Y0.878
N6690 X-9.526 Y0.834
N6695 X-9.665 Y0.779
N6700 X-9.799 Y0.71
N6705 X-9.926 Y0.63
N6710 X-10.047 Y0.542
N6715 X-10.164 Y0.448
N6720 X-10.278 Y0.35
N6725 X-10.389 Y0.25
N6730 X-10.498 Y0.147
N6735 X-10.604 Y0.041
N6740 X-10.709 Y-0.066
N6745 X-10.813 Y-0.175
N6750 X-10.914 Y-0.285
N6755 X-11.015 Y-0.396
N6760 X-11.115 Y-0.508
N6765 X-11.214 Y-0.621
N6770 X-11.312 Y-0.735
N6775 X-11.408 Y-0.85
N6780 X-11.503 Y-0.966
N6785 X-11.597 Y-1.083
N6790 X-11.662 Y-1.166
N6795 X-11.925 Y-1.554
N6800 X-12.132 Y-1.974
N6805 X-12.281 Y-2.418
N6810 X-12.367 Y-2.878
N6815 X-12.452 Y-3.598
N6820 X-12.511 Y-3.958
N6825 X-12.525 Y-4.037
N6830 G3 X-12.381 Y-4.795 I1.188 J-0.167
N6835 G1 X-12.315 Y-4.912 Z-2.992
N6840 X-12.249 Y-5.027 Z-2.97
N6845 X-12.186 Y-5.14 Z-2.933
N6850 X-12.124 Y-5.248 Z-2.881
N6855 X-12.066 Y-5.35 Z-2.816
N6860 X-12.012 Y-5.446 Z-2.738
N6865 X-11.963 Y-5.533 Z-2.649
N6870 X-11.919 Y-5.611 Z-2.548
N6875 X-11.881 Y-5.679 Z-2.438
N6880 X-11.848 Y-5.736 Z-2.321
N6885 X-11.823 Y-5.781 Z-2.196
N6890 X-11.805 Y-5.813 Z-2.067
N6895 X-11.794 Y-5.833 Z-1.934
N6900 X-11.79 Y-5.839 Z-1.8
N6905 G0 Z5.
N6910 G1 X16.077 Y-10.963 F5000.
N6915 G0 Z-0.6
N6920 G1 Z-1.8 F2160.
N6925 X16.075 Y-10.956 Z-1.934
N6930 X16.068 Y-10.935 Z-2.067
N6935 X16.056 Y-10.899 Z-2.196
N6940 X16.04 Y-10.851 Z-2.321
N6945 X16.02 Y-10.789 Z-2.438
N6950 X15.996 Y-10.715 Z-2.548
N6955 X15.968 Y-10.63 Z-2.649
N6960 X15.936 Y-10.534 Z-2.738
N6965 X15.902 Y-10.43 Z-2.816
N6970 X15.865 Y-10.318 Z-2.881
N6975 X15.827 Y-10.2 Z-2.933
N6980 X15.786 Y-10.077 Z-2.97
N6985 X15.745 Y-9.951 Z-2.992
N6990 X15.703 Y-9.823 Z-3.
N6995 G3 X15.28 Y-9.161 I-1.503 J-0.494
N7000 G1 X15.118 Y-9.02
N7005 X15.091 Y-8.995
N7010 X14.758 Y-8.669
N7015 X14.728 Y-8.635
N7020 X14.622 Y-8.528
N7025 X14.512 Y-8.427
N7030 X14.397 Y-8.331
N7035 X14.277 Y-8.241
N7040 X14.154 Y-8.155
N7045 X14.027 Y-8.074
N7050 X13.899 Y-7.997
N7055 X13.768 Y-7.923
N7060 X13.635 Y-7.853
N7065 X13.501 Y-7.786
N7070 X13.365 Y-7.722
N7075 X13.229 Y-7.661
N7080 X13.091 Y-7.602
N7085 X12.951 Y-7.546
N7090 X12.811 Y-7.492
N7095 X12.671 Y-7.441
N7100 X12.529 Y-7.391
N7105 X12.387 Y-7.343
N7110 X12.244 Y-7.298
N7115 X12.101 Y-7.254
N7120 X11.957 Y-7.211
N7125 X11.812 Y-7.171
N7130 X11.667 Y-7.132
N7135 X11.522 Y-7.094
N7140 X11.377 Y-7.058
N7145 X11.231 Y-7.024
N7150 X11.084 Y-6.99
N7155 X10.938 Y-6.958
N7160 X10.791 Y-6.927
N7165 X10.644 Y-6.898
N7170 X10.497 Y-6.869
N7175 X10.349 Y-6.842
N7180 X10.202 Y-6.815
N7185 X9.906 Y-6.765
N7190 X9.609 Y-6.719
N7195 X9.312 Y-6.676
N7200 X9.015 Y-6.637
N7205 X8.717 Y-6.6
N7210 X8.419 Y-6.566
N7215 X8.121 Y-6.534
N7220 X7.822 Y-6.505
N7225 X7.524 Y-6.478
N7230 X7.075 Y-6.44
N7235 X5.647 Y-6.333
N7240 X4.37 Y-6.228
N7245 X3.103 Y-6.036
N7250 X1.861 Y-5.716
N7255 X0.663 Y-5.263
N7260 X-0.48 Y-4.682
N7265 X-1.559 Y-3.99
N7270 X-2.577 Y-3.21
N7275 X-3.544 Y-2.369
N7280 X-4.705 Y-1.288
N7285 X-4.925 Y-1.085
N7290 X-5.147 Y-0.884
N7295 X-5.372 Y-0.685
N7300 X-5.485 Y-0.586
N7305 X-6.054 Y-0.102
N7310 X-6.284 Y0.091
N7315 X-6.399 Y0.187
N7320 X-6.516 Y0.281
N7325 X-6.634 Y0.374
N7330 X-7.124 Y0.787
N7335 X-7.561 Y1.256
N7340 X-7.937 Y1.774
N7345 X-8.015 Y1.915
N7350 X-8.052 Y1.986
N7355 X-8.197 Y1.947
N7360 X-8.341 Y1.906
N7365 X-8.484 Y1.862
N7370 X-8.627 Y1.816
N7375 X-8.768 Y1.766
N7380 X-8.909 Y1.712
N7385 X-9.047 Y1.655
N7390 X-9.185 Y1.594
N7395 X-9.32 Y1.53
N7400 X-9.454 Y1.462
N7405 X-9.586 Y1.391
N7410 X-9.716 Y1.317
N7415 X-9.844 Y1.239
N7420 X-9.971 Y1.158
N7425 X-10.096 Y1.075
N7430 X-10.218 Y0.989
N7435 X-10.34 Y0.901
N7440 X-10.459 Y0.81
N7445 X-10.577 Y0.718
N7450 X-10.694 Y0.623
N7455 X-10.808 Y0.526
N7460 X-10.922 Y0.428
N7465 X-11.033 Y0.327
N7470 X-11.142 Y0.224
N7475 X-11.249 Y0.119
N7480 X-11.355 Y0.013
N7485 X-11.457 Y-0.096
N7490 X-11.567 Y-0.219
N7495 X-11.839 Y-0.588
N7500 X-12.057 Y-0.991
N7505 X-12.218 Y-1.42
N7510 X-12.318 Y-1.867
N7515 X-12.354 Y-2.324
N7520 X-12.356 Y-2.519
N7525 X-12.367 Y-2.878
N7530 G3 X-12.115 Y-3.608 I1.2 J0.006
N7535 G1 X-12.033 Y-3.714 Z-2.992
N7540 X-11.952 Y-3.819 Z-2.97
N7545 X-11.872 Y-3.921 Z-2.933
N7550 X-11.796 Y-4.019 Z-2.881
N7555 X-11.724 Y-4.112 Z-2.816
N7560 X-11.657 Y-4.199 Z-2.738
N7565 X-11.595 Y-4.278 Z-2.649
N7570 X-11.54 Y-4.349 Z-2.548
N7575 X-11.492 Y-4.41 Z-2.438
N7580 X-11.453 Y-4.462 Z-2.321
N7585 X-11.421 Y-4.503 Z-2.196
N7590 X-11.398 Y-4.532 Z-2.067
N7595 X-11.384 Y-4.55 Z-1.934
N7600 X-11.38 Y-4.556 Z-1.8
N7605 G0 Z5.
N7610 G1 X15.292 Y-10.523 F5000.
N7615 G0 Z-0.6
N7620 G1 Z-1.8 F2160.
N7625 X15.291 Y-10.516 Z-1.934
N7630 X15.287 Y-10.494 Z-2.067
N7635 X15.279 Y-10.457 Z-2.196
N7640 X15.27 Y-10.406 Z-2.321
N7645 X15.257 Y-10.343 Z-2.438
N7650 X15.242 Y-10.266 Z-2.548
N7655 X15.225 Y-10.178 Z-2.649
N7660 X15.206 Y-10.08 Z-2.738
N7665 X15.185 Y-9.972 Z-2.816
N7670 X15.163 Y-9.856 Z-2.881
N7675 X15.139 Y-9.734 Z-2.933
N7680 X15.115 Y-9.607 Z-2.97
N7685 X15.089 Y-9.477 Z-2.992
N7690 X15.064 Y-9.345 Z-3.
N7695 G3 X14.728 Y-8.635 I-1.554 J-0.301
N7700 G1 X14.407 Y-8.275
N7705 X14.356 Y-8.206
N7710 X14.262 Y-8.09
N7715 X14.161 Y-7.979
N7720 X14.053 Y-7.874
N7725 X13.94 Y-7.776
N7730 X13.822 Y-7.683
N7735 X13.702 Y-7.594
N7740 X13.578 Y-7.509
N7745 X13.451 Y-7.429
N7750 X13.322 Y-7.351
N7755 X13.178 Y-7.27
N7760 X13.022 Y-7.187
N7765 X12.849 Y-7.1
N7770 X12.658 Y-7.011
N7775 X12.449 Y-6.92
N7780 X12.217 Y-6.826
N7785 X11.961 Y-6.73
N7790 X11.677 Y-6.632
N7795 X11.36 Y-6.531
N7800 X11.005 Y-6.429
N7805 X10.606 Y-6.325
N7810 X10.152 Y-6.219
N7815 X9.629 Y-6.111
N7820 X8.999 Y-5.998
N7825 X8.085 Y-5.858
N7830 X6.813 Y-5.697
N7835 X5.541 Y-5.543
N7840 X4.277 Y-5.33
N7845 X3.034 Y-5.018
N7850 X1.824 Y-4.594
N7855 X0.659 Y-4.06
N7860 X-0.456 Y-3.427
N7865 X-1.521 Y-2.714
N7870 X-2.543 Y-1.941
N7875 X-3.54 Y-1.135
N7880 X-4.529 Y-0.319
N7885 X-5.476 Y0.545
N7890 X-5.908 Y1.018
N7895 X-6.28 Y1.54
N7900 X-6.585 Y2.104
N7905 X-6.819 Y2.7
N7910 X-6.98 Y3.321
N7915 X-7.063 Y3.956
N7920 X-7.069 Y4.597
N7925 X-6.997 Y5.234
N7930 X-6.849 Y5.857
N7935 X-6.625 Y6.458
N7940 X-6.331 Y7.027
N7945 X-5.969 Y7.556
N7950 X-5.123 Y8.519
N7955 X-4.071 Y9.252
N7960 X-2.925 Y9.825
N7965 X-1.717 Y10.254
N7970 X-0.472 Y10.56
N7975 X0.793 Y10.766
N7980 X2.068 Y10.899
N7985 X3.347 Y10.982
N7990 X4.628 Y11.032
N7995 X5.91 Y11.061
N8000 X7.191 Y11.078
N8005 X8.473 Y11.087
N8010 X9.755 Y11.093
N8015 X11.037 Y11.096
N8020 X12.318 Y11.095
N8025 X13.6 Y11.079
N8030 X14.881 Y11.023
N8035 X16.157 Y10.902
N8040 X16.818 Y10.832
N8045 X16.878 Y10.827
N8050 X17.352 Y10.823
N8055 X17.821 Y10.886
N8060 X18.277 Y11.017
N8065 X18.718 Y11.178
N8070 X19.078 Y11.296
N8075 X19.438 Y11.407
N8080 X19.712 Y11.46
N8085 G3 X20.613 Y12.897 Z-2.8 I-0.269 J1.17
N8090 X19.447 Y13.829 I-1.17 J-0.268
N8095 G1 X-20.297 Y13.961
N8100 G3 X-21.487 Y12.943 I-0.004 J-1.2
N8105 X-20.485 Y11.575 Z-3. I1.186 J-0.182
N8110 G1 X-20.158 Y11.536
N8115 X-19.798 Y11.476
N8120 X-19.438 Y11.407
N8125 X-19.329 Y11.373
N8130 X-18.995 Y11.288
N8135 X-18.843 Y11.253
N8140 X-18.658 Y11.216
N8145 X-18.432 Y11.177
N8150 X-18.16 Y11.137
N8155 X-17.829 Y11.096
N8160 X-17.409 Y11.056
N8165 X-16.843 Y11.017
N8170 X-15.562 Y10.961
N8175 X-14.944 Y10.791
N8180 X-14.352 Y10.547
N8185 X-13.793 Y10.233
N8190 X-13.277 Y9.854
N8195 X-12.81 Y9.414
N8200 X-12.401 Y8.921
N8205 X-12.054 Y8.382
N8210 X-11.775 Y7.805
N8215 X-11.569 Y7.198
N8220 X-11.306 Y5.944
N8225 X-11.324 Y4.662
N8230 X-11.525 Y3.396
N8235 X-11.856 Y2.158
N8240 X-12.182 Y1.174
N8245 X-12.275 Y0.835
N8250 X-12.331 Y0.487
N8255 X-12.35 Y0.136
N8260 Y-1.799
N8265 X-12.354 Y-2.324
N8270 G3 X-11.466 Y-3.454 Z-2.836 I1.2 J0.029
N8275 G1 X-11.135 Y-3.543 Z-2.8
N8280 X13.051 Y-10.038
N8285 G3 X14.036 Y-9.872 I0.311 J1.159
N8290 X14.356 Y-8.206 Z-3. I-0.673 J0.993
N8295 G1 X14.144 Y-7.916
N8300 X14.06 Y-7.779
N8305 X13.975 Y-7.655
N8310 X13.881 Y-7.538
N8315 X13.781 Y-7.427
N8320 X13.674 Y-7.322
N8325 X13.562 Y-7.221
N8330 X13.447 Y-7.126
N8335 X13.328 Y-7.034
N8340 X13.206 Y-6.946
N8345 X13.082 Y-6.862
N8350 X12.947 Y-6.777
N8355 X12.806 Y-6.692
N8360 X12.648 Y-6.602
N8365 X12.473 Y-6.509
N8370 X12.287 Y-6.416
N8375 X12.073 Y-6.316
N8380 X11.851 Y-6.219
N8385 X11.595 Y-6.115
N8390 X11.318 Y-6.011
N8395 X11.009 Y-5.903
N8400 X10.658 Y-5.791
N8405 X10.253 Y-5.674
N8410 X9.798 Y-5.555
N8415 X9.206 Y-5.416
N8420 X8.422 Y-5.253
N8425 X7.16 Y-5.025
N8430 X5.9 Y-4.793
N8435 X4.65 Y-4.507
N8440 X3.423 Y-4.139
N8445 X2.227 Y-3.677
N8450 X1.07 Y-3.125
N8455 X-0.046 Y-2.494
N8460 X-1.122 Y-1.798
N8465 X-2.168 Y-1.056
N8470 X-2.608 Y-0.59
N8475 X-2.988 Y-0.075
N8480 X-3.303 Y0.484
N8485 X-3.547 Y1.076
N8490 X-3.718 Y1.694
N8495 X-3.812 Y2.328
N8500 X-3.829 Y2.968
N8505 X-3.768 Y3.606
N8510 X-3.63 Y4.232
N8515 X-3.417 Y4.837
N8520 X-2.847 Y5.985
N8525 X-2.043 Y6.983
N8530 X-1.082 Y7.831
N8535 X-0.003 Y8.523
N8540 X1.159 Y9.064
N8545 X2.375 Y9.47
N8550 X3.624 Y9.76
N8555 X4.89 Y9.96
N8560 X6.165 Y10.091
N8565 X7.444 Y10.173
N8570 X8.725 Y10.225
N8575 X10.006 Y10.255
N8580 X11.288 Y10.268
N8585 X12.57 Y10.259
N8590 X13.851 Y10.212
N8595 X14.439 Y10.176
N8600 X15.154 Y10.138
N8605 X15.517 Y10.128
N8610 X15.558
N8615 X15.95 Y10.151
N8620 X16.336 Y10.22
N8625 X16.712 Y10.335
N8630 X17.071 Y10.493
N8635 X17.278 Y10.599
N8640 X17.701 Y10.794
N8645 X17.998 Y10.915
N8650 X18.277 Y11.017
N8655 G3 X18.938 Y12.579 Z-2.8 I-0.451 J1.112
N8660 X17.838 Y13.329 I-1.112 J-0.45
N8665 G1 X-18.925 Y13.707
N8670 G3 X-20.071 Y12.898 I-0.012 J-1.2
N8675 X-19.329 Y11.373 Z-3. I1.135 J-0.391
N8680 G1 X-19.078 Y11.296
N8685 X-18.718 Y11.178
N8690 X-17.998 Y10.915
N8695 X-17.701 Y10.794
N8700 X-17.278 Y10.599
N8705 X-16.957 Y10.434
N8710 X-16.198 Y9.927
N8715 X-15.933 Y9.715
N8720 X-15.478 Y9.334
N8725 X-15.118 Y9.02
N8730 X-15.091 Y8.995
N8735 X-14.758 Y8.669
N8740 X-14.407 Y8.275
N8745 X-14.144 Y7.916
N8750 X-13.678 Y7.16
N8755 X-13.493 Y6.836
N8760 X-13.295 Y6.476
N8765 X-13.114 Y6.117
N8770 X-12.824 Y5.397
N8775 X-12.723 Y5.037
N8780 X-12.642 Y4.677
N8785 X-12.599 Y4.456
N8790 X-12.511 Y3.958
N8795 X-12.452 Y3.598
N8800 X-12.367 Y2.878
N8805 X-12.356 Y2.519
N8810 X-12.353 Y2.159
N8815 X-12.35 Y1.799
N8820 Y0.136
N8825 G3 X-11.555 Y-0.994 Z-2.844 I1.2 J0.
N8830 G1 X-11.167 Y-1.133 Z-2.8
N8835 X12.662 Y-9.685
N8840 G3 X13.82 Y-9.49 I0.405 J1.129
N8845 X14.267 Y-8.536 Z-2.916 I-0.753 J0.934
N8850 X14.06 Y-7.779 Z-3. I-1.582 J-0.025
N8855 G1 X13.745 Y-7.269
N8860 X13.66 Y-7.145
N8865 X13.571 Y-7.025
N8870 X13.474 Y-6.911
N8875 X13.371 Y-6.801
N8880 X13.263 Y-6.697
N8885 X13.151 Y-6.597
N8890 X13.036 Y-6.502
N8895 X12.917 Y-6.41
N8900 X12.796 Y-6.321
N8905 X12.67 Y-6.234
N8910 X12.532 Y-6.145
N8915 X12.376 Y-6.049
N8920 X12.214 Y-5.955
N8925 X12.029 Y-5.854
N8930 X11.828 Y-5.751
N8935 X11.61 Y-5.646
N8940 X11.359 Y-5.533
N8945 X11.092 Y-5.421
N8950 X10.774 Y-5.298
N8955 X10.431 Y-5.175
N8960 X10.023 Y-5.04
N8965 X9.479 Y-4.877
N8970 X8.631 Y-4.645
N8975 X7.386 Y-4.339
N8980 X6.142 Y-4.03
N8985 X4.91 Y-3.677
N8990 X3.7 Y-3.256
N8995 X2.518 Y-2.76
N9000 X1.951 Y-2.461
N9005 X1.424 Y-2.095
N9010 X0.946 Y-1.669
N9015 X0.523 Y-1.187
N9020 X0.162 Y-0.658
N9025 X-0.133 Y-0.089
N9030 X-0.356 Y0.512
N9035 X-0.504 Y1.136
N9040 X-0.576 Y1.773
N9045 X-0.569 Y2.413
N9050 X-0.485 Y3.049
N9055 X-0.324 Y3.669
N9060 X-0.089 Y4.266
N9065 X0.522 Y5.392
N9070 X1.374 Y6.35
N9075 X2.369 Y7.158
N9080 X3.471 Y7.813
N9085 X4.647 Y8.323
N9090 X5.87 Y8.706
N9095 X7.122 Y8.979
N9100 X8.39 Y9.167
N9105 X9.666 Y9.287
N9110 X10.946 Y9.353
N9115 X12.228 Y9.371
N9120 X13.51 Y9.356
N9125 X13.948 Y9.36
N9130 X14.331 Y9.373
N9135 X14.604 Y9.389
N9140 X14.664 Y9.394
N9145 X15.074 Y9.456
N9150 X15.473 Y9.568
N9155 X15.855 Y9.73
N9160 X16.214 Y9.938
N9165 X16.957 Y10.434
N9170 X17.071 Y10.493
N9175 G3 X17.588 Y11.066 I-0.586 J1.047
N9180 G1 X17.641 Y11.189 Z-2.992
N9185 X17.694 Y11.311 Z-2.97
N9190 X17.745 Y11.43 Z-2.933
N9195 X17.794 Y11.544 Z-2.881
N9200 X17.84 Y11.652 Z-2.816
N9205 X17.884 Y11.753 Z-2.738
N9210 X17.924 Y11.845 Z-2.649
N9215 X17.959 Y11.928 Z-2.548
N9220 X17.99 Y11.999 Z-2.438
N9225 X18.016 Y12.059 Z-2.321
N9230 X18.036 Y12.106 Z-2.196
N9235 X18.051 Y12.141 Z-2.067
N9240 X18.06 Y12.161 Z-1.934
N9245 X18.063 Y12.168 Z-1.8
N9250 G0 Z5.
N9255 G1 X13.972 Y-9.226 F5000.
N9260 G0 Z-0.6
N9265 G1 Z-1.8 F2160.
N9270 Y-9.219 Z-1.934
N9275 X13.971 Y-9.196 Z-2.067
N9280 Y-9.159 Z-2.196
N9285 X13.97 Y-9.108 Z-2.321
N9290 X13.969 Y-9.042 Z-2.438
N9295 X13.968 Y-8.965 Z-2.548
N9300 X13.966 Y-8.875 Z-2.649
N9305 X13.964 Y-8.775 Z-2.738
N9310 X13.963 Y-8.665 Z-2.816
N9315 X13.961 Y-8.547 Z-2.881
N9320 X13.959 Y-8.423 Z-2.933
N9325 X13.957 Y-8.294 Z-2.97
N9330 X13.955 Y-8.161 Z-2.992
N9335 X13.952 Y-8.027 Z-3.
N9340 G3 X13.745 Y-7.269 I-1.582 J-0.025
N9345 G1 X13.678 Y-7.16
N9350 X13.493 Y-6.836
N9355 X13.464 Y-6.784
N9360 X13.346 Y-6.59
N9365 X13.258 Y-6.468
N9370 X13.163 Y-6.352
N9375 X13.062 Y-6.241
N9380 X12.957 Y-6.134
N9385 X12.847 Y-6.032
N9390 X12.734 Y-5.933
N9395 X12.618 Y-5.838
N9400 X12.499 Y-5.747
N9405 X12.368 Y-5.651
N9410 X12.232 Y-5.557
N9415 X12.077 Y-5.456
N9420 X11.908 Y-5.352
N9425 X11.725 Y-5.246
N9430 X11.512 Y-5.129
N9435 X11.286 Y-5.013
N9440 X11.018 Y-4.884
N9445 X10.709 Y-4.745
N9450 X10.367 Y-4.602
N9455 X9.927 Y-4.431
N9460 X9.321 Y-4.213
N9465 X8.104 Y-3.811
N9470 X6.878 Y-3.437
N9475 X6.268 Y-3.24
N9480 X5.687 Y-2.969
N9485 X5.143 Y-2.63
N9490 X4.645 Y-2.227
N9495 X4.199 Y-1.767
N9500 X3.812 Y-1.256
N9505 X3.49 Y-0.702
N9510 X3.237 Y-0.113
N9515 X3.059 Y0.502
N9520 X2.956 Y1.135
N9525 X2.931 Y1.775
N9530 X2.984 Y2.414
N9535 X3.114 Y3.042
N9540 X3.319 Y3.649
N9545 X3.596 Y4.227
N9550 X3.942 Y4.766
N9555 X4.759 Y5.754
N9560 X5.787 Y6.52
N9565 X6.913 Y7.133
N9570 X8.105 Y7.603
N9575 X9.34 Y7.946
N9580 X10.601 Y8.178
N9585 X11.874 Y8.33
N9590 X12.863 Y8.423
N9595 X13.268 Y8.471
N9600 X13.64 Y8.526
N9605 X13.891 Y8.569
N9610 X13.952 Y8.581
N9615 X14.365 Y8.692
N9620 X14.761 Y8.856
N9625 X15.133 Y9.07
N9630 X15.473 Y9.33
N9635 X15.933 Y9.715
N9640 X16.198 Y9.927
N9645 X16.214 Y9.938
N9650 G3 X16.662 Y10.566 I-0.701 J0.974
N9655 G1 X16.701 Y10.695 Z-2.992
N9660 X16.739 Y10.822 Z-2.97
N9665 X16.776 Y10.945 Z-2.933
N9670 X16.812 Y11.064 Z-2.881
N9675 X16.846 Y11.177 Z-2.816
N9680 X16.878 Y11.282 Z-2.738
N9685 X16.907 Y11.378 Z-2.649
N9690 X16.932 Y11.464 Z-2.548
N9695 X16.955 Y11.539 Z-2.438
N9700 X16.974 Y11.601 Z-2.321
N9705 X16.989 Y11.65 Z-2.196
N9710 X16.999 Y11.686 Z-2.067
N9715 X17.006 Y11.708 Z-1.934
N9720 X17.008 Y11.715 Z-1.8
N9725 G0 Z5.
N9730 G1 X13.596 Y-8.75 F5000.
N9735 G0 Z-0.6
N9740 G1 Z-1.8 F2160.
N9745 Y-8.742 Z-1.934
N9750 X13.597 Y-8.72 Z-2.067
N9755 X13.598 Y-8.682 Z-2.196
N9760 X13.6 Y-8.631 Z-2.321
N9765 X13.602 Y-8.566 Z-2.438
N9770 X13.604 Y-8.488 Z-2.548
N9775 X13.607 Y-8.398 Z-2.649
N9780 X13.611 Y-8.298 Z-2.738
N9785 X13.614 Y-8.188 Z-2.816
N9790 X13.618 Y-8.071 Z-2.881
N9795 X13.622 Y-7.946 Z-2.933
N9800 X13.626 Y-7.817 Z-2.97
N9805 X13.63 Y-7.684 Z-2.992
N9810 X13.635 Y-7.55 Z-3.
N9815 G3 X13.464 Y-6.784 I-1.582 J0.051
N9820 G1 X13.295 Y-6.476
N9825 X13.171 Y-6.23
N9830 X13.096 Y-6.099
N9835 X13.016 Y-5.973
N9840 X12.927 Y-5.852
N9845 X12.832 Y-5.736
N9850 X12.731 Y-5.624
N9855 X12.627 Y-5.517
N9860 X12.518 Y-5.413
N9865 X12.406 Y-5.313
N9870 X12.292 Y-5.217
N9875 X12.17 Y-5.12
N9880 X12.032 Y-5.015
N9885 X11.887 Y-4.911
N9890 X11.715 Y-4.794
N9895 X11.535 Y-4.679
N9900 X11.315 Y-4.546
N9905 X11.087 Y-4.416
N9910 X10.806 Y-4.265
N9915 X9.661 Y-3.689
N9920 X9.127 Y-3.334
N9925 X8.64 Y-2.918
N9930 X8.207 Y-2.446
N9935 X7.835 Y-1.924
N9940 X7.528 Y-1.361
N9945 X7.293 Y-0.765
N9950 X7.131 Y-0.145
N9955 X7.046 Y0.491
N9960 X7.039 Y1.131
N9965 X7.11 Y1.768
N9970 X7.258 Y2.392
N9975 X7.48 Y2.993
N9980 X7.773 Y3.563
N9985 X8.134 Y4.093
N9990 X8.979 Y5.057
N9995 X10.013 Y5.815
N10000 X11.132 Y6.439
N10005 X12.3 Y6.966
N10010 X12.724 Y7.142
N10015 X13.215 Y7.35
N10020 X13.555 Y7.521
N10025 X13.871 Y7.735
N10030 X14.156 Y7.988
N10035 X14.407 Y8.275
N10040 X14.758 Y8.669
N10045 X15.091 Y8.995
N10050 X15.118 Y9.02
N10055 X15.473 Y9.33
N10060 G3 X15.837 Y10.01 I-0.82 J0.877
N10065 G1 X15.859 Y10.142 Z-2.992
N10070 X15.881 Y10.273 Z-2.97
N10075 X15.902 Y10.401 Z-2.933
N10080 X15.923 Y10.523 Z-2.881
N10085 X15.942 Y10.64 Z-2.816
N10090 X15.96 Y10.748 Z-2.738
N10095 X15.976 Y10.847 Z-2.649
N10100 X15.991 Y10.935 Z-2.548
N10105 X16.004 Y11.012 Z-2.438
N10110 X16.014 Y11.076 Z-2.321
N10115 X16.023 Y11.127 Z-2.196
N10120 X16.029 Y11.164 Z-2.067
N10125 X16.033 Y11.186 Z-1.934
N10130 X16.034 Y11.193 Z-1.8
N10135 G0 Z5.
N10140 G1 X13.228 Y-8.199 F5000.
N10145 G0 Z-0.6
N10150 G1 Z-1.8 F2160.
N10155 X13.229 Y-8.192 Z-1.934
N10160 X13.23 Y-8.169 Z-2.067
N10165 X13.233 Y-8.132 Z-2.196
N10170 X13.237 Y-8.081 Z-2.321
N10175 X13.241 Y-8.016 Z-2.438
N10180 X13.247 Y-7.938 Z-2.548
N10185 X13.253 Y-7.849 Z-2.649
N10190 X13.26 Y-7.749 Z-2.738
N10195 X13.267 Y-7.639 Z-2.816
N10200 X13.276 Y-7.522 Z-2.881
N10205 X13.284 Y-7.398 Z-2.933
N10210 X13.293 Y-7.269 Z-2.97
N10215 X13.303 Y-7.136 Z-2.992
N10220 X13.312 Y-7.002 Z-3.
N10225 G3 X13.171 Y-6.23 I-1.579 J0.11
N10230 G1 X13.114 Y-6.117
N10235 X12.998 Y-5.83
N10240 X12.935 Y-5.694
N10245 X12.866 Y-5.56
N10250 X12.788 Y-5.433
N10255 X12.702 Y-5.31
N10260 X12.61 Y-5.191
N10265 X12.513 Y-5.077
N10270 X12.411 Y-4.966
N10275 X12.307 Y-4.859
N10280 X11.382 Y-3.971
N10285 X11.017 Y-3.444
N10290 X10.72 Y-2.876
N10295 X10.493 Y-2.277
N10300 X10.189 Y-1.032
N10305 X10.193 Y0.25
N10310 X10.455 Y1.505
N10315 X10.936 Y2.693
N10320 X11.59 Y3.796
N10325 X12.368 Y4.814
N10330 X12.395 Y4.843
N10335 X12.628 Y5.139
N10340 X12.826 Y5.459
N10345 X12.986 Y5.8
N10350 X13.114 Y6.117
N10355 X13.295 Y6.476
N10360 X13.493 Y6.836
N10365 X13.678 Y7.16
N10370 X14.144 Y7.916
N10375 X14.407 Y8.275
N10380 G3 X14.627 Y9.015 I-0.979 J0.694
N10385 G1 X14.622 Y9.149 Z-2.992
N10390 X14.617 Y9.282 Z-2.97
N10395 X14.612 Y9.411 Z-2.933
N10400 X14.607 Y9.535 Z-2.881
N10405 X14.603 Y9.653 Z-2.816
N10410 X14.598 Y9.763 Z-2.738
N10415 X14.595 Y9.863 Z-2.649
N10420 X14.591 Y9.952 Z-2.548
N10425 X14.588 Y10.03 Z-2.438
N10430 X14.586 Y10.095 Z-2.321
N10435 X14.584 Y10.147 Z-2.196
N10440 X14.582 Y10.184 Z-2.067
N10445 X14.581 Y10.206 Z-1.934
N10450 Y10.214 Z-1.8
N10455 G0 Z5.
N10460 G1 X12.89 Y-7.797 F5000.
N10465 G0 Z-0.6
N10470 G1 Z-1.8 F2160.
N10475 X12.891 Y-7.79 Z-1.934
N10480 X12.895 Y-7.768 Z-2.067
N10485 X12.901 Y-7.731 Z-2.196
N10490 X12.908 Y-7.68 Z-2.321
N10495 X12.918 Y-7.615 Z-2.438
N10500 X12.93 Y-7.539 Z-2.548
N10505 X12.944 Y-7.45 Z-2.649
N10510 X12.959 Y-7.351 Z-2.738
N10515 X12.976 Y-7.242 Z-2.816
N10520 X12.994 Y-7.126 Z-2.881
N10525 X13.013 Y-7.003 Z-2.933
N10530 X13.033 Y-6.875 Z-2.97
N10535 X13.054 Y-6.744 Z-2.992
N10540 X13.074 Y-6.611 Z-3.
N10545 G3 X12.998 Y-5.83 I-1.564 J0.243
N10550 G1 X12.824 Y-5.397
N10555 X12.815 Y-5.364
N10560 X12.767 Y-5.222
N10565 X12.243 Y-4.052
N10570 X11.877 Y-2.824
N10575 X11.729 Y-1.551
N10580 X11.79 Y-0.27
N10585 X12.037 Y0.988
N10590 X12.205 Y1.521
N10595 X12.286 Y1.833
N10600 X12.337 Y2.152
N10605 X12.356 Y2.474
N10610 G3 X12.09 Y3.198 I-1.2 J-0.029
N10615 G1 X12.006 Y3.303 Z-2.992
N10620 X11.923 Y3.406 Z-2.97
N10625 X11.842 Y3.507 Z-2.933
N10630 X11.763 Y3.604 Z-2.881
N10635 X11.69 Y3.695 Z-2.816
N10640 X11.621 Y3.781 Z-2.738
N10645 X11.558 Y3.859 Z-2.649
N10650 X11.501 Y3.929 Z-2.548
N10655 X11.452 Y3.989 Z-2.438
N10660 X11.412 Y4.04 Z-2.321
N10665 X11.379 Y4.08 Z-2.196
N10670 X11.356 Y4.109 Z-2.067
N10675 X11.342 Y4.127 Z-1.934
N10680 X11.337 Y4.132 Z-1.8
N10685 G0 Z5.
N10690 G1 X12.494 Y-7.308 F5000.
N10695 G0 Z-0.6
N10700 G1 Z-1.8 F2160.
N10705 X12.496 Y-7.301 Z-1.934
N10710 X12.502 Y-7.279 Z-2.067
N10715 X12.511 Y-7.243 Z-2.196
N10720 X12.525 Y-7.194 Z-2.321
N10725 X12.542 Y-7.131 Z-2.438
N10730 X12.562 Y-7.055 Z-2.548
N10735 X12.585 Y-6.969 Z-2.649
N10740 X12.611 Y-6.872 Z-2.738
N10745 X12.64 Y-6.766 Z-2.816
N10750 X12.67 Y-6.652 Z-2.881
N10755 X12.703 Y-6.532 Z-2.933
N10760 X12.736 Y-6.407 Z-2.97
N10765 X12.771 Y-6.279 Z-2.992
N10770 X12.805 Y-6.149 Z-3.
N10775 G3 X12.815 Y-5.364 I-1.528 J0.411
N10780 G1 X12.723 Y-5.037
N10785 X12.642 Y-4.677
N10790 X12.599 Y-4.456
N10795 X12.511 Y-3.958
N10800 X12.452 Y-3.598
N10805 X12.367 Y-2.878
N10810 X12.356 Y-2.519
N10815 X12.353 Y-2.159
N10820 X12.35 Y-1.799
N10825 Y1.799
N10830 X12.353 Y2.159
N10835 X12.356 Y2.519
N10840 X12.367 Y2.878
N10845 X12.452 Y3.598
N10850 X12.511 Y3.958
N10855 X12.599 Y4.456
N10860 X12.623 Y4.578
N10865 G3 X12.494 Y5.338 I-1.185 J0.191
N10870 G1 X12.43 Y5.457 Z-2.992
N10875 X12.367 Y5.573 Z-2.97
N10880 X12.305 Y5.687 Z-2.933
N10885 X12.246 Y5.796 Z-2.881
N10890 X12.19 Y5.9 Z-2.816
N10895 X12.138 Y5.997 Z-2.738
N10900 X12.091 Y6.085 Z-2.649
N10905 X12.048 Y6.164 Z-2.548
N10910 X12.011 Y6.232 Z-2.438
N10915 X11.98 Y6.29 Z-2.321
N10920 X11.956 Y6.335 Z-2.196
N10925 X11.938 Y6.368 Z-2.067
N10930 X11.927 Y6.388 Z-1.934
N10935 X11.924 Y6.394 Z-1.8
N10940 G0 Z5.
N10945 G1 X25.165 Y11.09 F5000.
N10950 G0 Z-0.6
N10955 G1 Z-1.8 F2160.
N10960 X25.158 Y11.092 Z-1.934
N10965 X25.136 Y11.098 Z-2.067
N10970 X25.1 Y11.107 Z-2.196
N10975 X25.05 Y11.12 Z-2.321
N10980 X24.987 Y11.136 Z-2.438
N10985 X24.912 Y11.155 Z-2.548
N10990 X24.825 Y11.178 Z-2.649
N10995 X24.728 Y11.203 Z-2.738
N11000 X24.621 Y11.23 Z-2.816
N11005 X24.507 Y11.259 Z-2.881
N11010 X24.387 Y11.29 Z-2.933
N11015 X24.262 Y11.322 Z-2.97
N11020 X24.133 Y11.355 Z-2.992
N11025 X24.003 Y11.388 Z-3.
N11030 G3 X23.225 Y11.5 I-0.905 J-3.532
N11035 G1 X23.134
N11040 X23.141 Y11.495
N11045 X23.149 Y11.491
N11050 X23.158 Y11.488
N11055 G3 X23.921 Y11.602 I0.214 J1.181
N11060 G1 X24.04 Y11.664 Z-2.992
N11065 X24.158 Y11.724 Z-2.97
N11070 X24.273 Y11.783 Z-2.933
N11075 X24.384 Y11.84 Z-2.881
N11080 X24.489 Y11.894 Z-2.816
N11085 X24.586 Y11.944 Z-2.738
N11090 X24.675 Y11.99 Z-2.649
N11095 X24.755 Y12.031 Z-2.548
N11100 X24.824 Y12.067 Z-2.438
N11105 X24.882 Y12.097 Z-2.321
N11110 X24.928 Y12.12 Z-2.196
N11115 X24.961 Y12.137 Z-2.067
N11120 X24.981 Y12.148 Z-1.934
N11125 X24.988 Y12.151 Z-1.8
N11130 G0 Z15.
N11135 G1 X45.051 Y-20.939 F5000.
N11140 G0 Z5.
N11145 Z-4.8
N11150 G1 Z-6. F2160.
N11155 Z-8.
N11160 G3 X38.518 Y-20. I-7.602 J-29.678
N11165 G1 X38.438
N11170 X37.799 Y-21.111
N11175 X36.965 Y-22.084
N11180 X35.979 Y-22.904
N11185 X34.882 Y-23.566
N11190 X33.707 Y-24.08
N11195 X32.483 Y-24.459
N11200 X31.229 Y-24.727
N11205 X29.96 Y-24.908
N11210 X28.684 Y-25.024
N11215 X27.404 Y-25.096
N11220 X26.123 Y-25.139
N11225 X24.841 Y-25.165
N11230 X23.56 Y-25.18
N11235 X22.278 Y-25.188
N11240 X20.996 Y-25.193
N11245 X19.714 Y-25.196
N11250 X17.151 Y-25.199
N11255 X8.178 Y-25.2
N11260 X-9.767
N11265 X-30.276
N11270 X-31.545 Y-25.024
N11275 X-32.744 Y-24.569
N11280 X-33.828 Y-23.885
N11285 X-34.77 Y-23.016
N11290 X-35.556 Y-22.003
N11295 X-36.186 Y-20.887
N11300 X-36.67 Y-19.7
N11305 X-37.024 Y-18.468
N11310 X-37.272 Y-17.211
N11315 X-37.437 Y-15.94
N11320 X-37.542 Y-14.662
N11325 X-37.607 Y-13.382
N11330 X-37.646 Y-12.101
N11335 X-37.669 Y-10.819
N11340 X-37.682 Y-9.537
N11345 X-37.69 Y-8.256
N11350 X-37.694 Y-6.974
N11355 X-37.697 Y-5.692
N11360 X-37.699 Y-3.128
N11365 X-37.7 Y1.999
N11370 Y17.38
N11375 X-37.61 Y18.659
N11380 X-37.235 Y19.885
N11385 X-36.617 Y21.008
N11390 X-35.8 Y21.995
N11395 X-34.827 Y22.83
N11400 X-33.739 Y23.508
N11405 X-32.571 Y24.036
N11410 X-31.351 Y24.428
N11415 X-30.099 Y24.705
N11420 X-28.831 Y24.893
N11425 X-27.555 Y25.015
N11430 X-26.276 Y25.09
N11435 X-24.995 Y25.136
N11440 X-23.713 Y25.163
N11445 X-22.431 Y25.179
N11450 X-21.15 Y25.188
N11455 X-19.868 Y25.193
N11460 X-18.586 Y25.196
N11465 X-16.023 Y25.199
N11470 X-8.332 Y25.2
N11475 X-5.768
N11480 X30.122
N11485 X31.396 Y25.06
N11490 X32.606 Y24.636
N11495 X33.705 Y23.977
N11500 X34.665 Y23.128
N11505 X35.47 Y22.13
N11510 X36.119 Y21.025
N11515 X36.619 Y19.845
N11520 X36.988 Y18.617
N11525 X37.247 Y17.362
N11530 X37.421 Y16.092
N11535 X37.532 Y14.815
N11540 X37.601 Y13.535
N11545 X37.642 Y12.254
N11550 X37.666 Y10.972
N11555 X37.681 Y9.69
N11560 X37.689 Y8.409
N11565 X37.694 Y7.127
N11570 X37.696 Y5.845
N11575 X37.699 Y3.281
N11580 X37.7 Y-5.691
N11585 Y-15.946
N11590 X37.553 Y-17.219
N11595 X37.172 Y-18.443
N11600 X36.577 Y-19.579
N11605 X35.8 Y-20.598
N11610 X34.873 Y-21.483
N11615 X33.827 Y-22.224
N11620 X32.695 Y-22.824
N11625 X31.502 Y-23.293
N11630 X30.269 Y-23.645
N11635 X29.013 Y-23.899
N11640 X27.743 Y-24.076
N11645 X26.467 Y-24.195
N11650 X25.187 Y-24.272
N11655 X23.907 Y-24.322
N11660 X22.625 Y-24.352
N11665 X21.343 Y-24.371
N11670 X20.062 Y-24.383
N11675 X18.78 Y-24.39
N11680 X17.498 Y-24.394
N11685 X16.216 Y-24.396
N11690 X13.653 Y-24.399
N11695 X4.68 Y-24.4
N11700 X-27.365
N11705 X-28.646 Y-24.368
N11710 X-29.906 Y-24.132
N11715 X-31.108 Y-23.685
N11720 X-32.217 Y-23.043
N11725 X-33.208 Y-22.231
N11730 X-34.066 Y-21.278
N11735 X-34.785 Y-20.217
N11740 X-35.368 Y-19.075
N11745 X-35.821 Y-17.876
N11750 X-36.162 Y-16.641
N11755 X-36.409 Y-15.383
N11760 X-36.581 Y-14.113
N11765 X-36.698 Y-12.836
N11770 X-36.774 Y-11.557
N11775 X-36.822 Y-10.276
N11780 X-36.853 Y-8.994
N11785 X-36.871 Y-7.713
N11790 X-36.883 Y-6.431
N11795 X-36.89 Y-5.149
N11800 X-36.894 Y-3.867
N11805 X-36.896 Y-2.586
N11810 X-36.899 Y-0.022
N11815 X-36.9 Y8.951
N11820 Y15.36
N11825 X-36.795 Y16.637
N11830 X-36.477 Y17.879
N11835 X-35.952 Y19.048
N11840 X-35.24 Y20.114
N11845 X-34.371 Y21.056
N11850 X-33.374 Y21.861
N11855 X-32.278 Y22.527
N11860 X-31.111 Y23.057
N11865 X-29.896 Y23.465
N11870 X-28.65 Y23.768
N11875 X-27.387 Y23.984
N11880 X-26.114 Y24.132
N11885 X-24.836 Y24.231
N11890 X-23.556 Y24.295
N11895 X-22.274 Y24.336
N11900 X-20.993 Y24.361
N11905 X-19.711 Y24.376
N11910 X-18.429 Y24.386
N11915 X-17.148 Y24.391
N11920 X-15.866 Y24.395
N11925 X-13.302 Y24.398
N11930 X-6.893 Y24.4
N11935 X20.025
N11940 X27.715
N11945 X28.995 Y24.318
N11950 X30.242 Y24.025
N11955 X31.422 Y23.522
N11960 X32.501 Y22.831
N11965 X33.458 Y21.978
N11970 X34.279 Y20.993
N11975 X34.959 Y19.907
N11980 X35.504 Y18.747
N11985 X35.926 Y17.536
N11990 X36.239 Y16.293
N11995 X36.463 Y15.031
N12000 X36.618 Y13.759
N12005 X36.722 Y12.481
N12010 X36.789 Y11.201
N12015 X36.832 Y9.92
N12020 X36.859 Y8.639
N12025 X36.875 Y7.357
N12030 X36.885 Y6.075
N12035 X36.891 Y4.793
N12040 X36.895 Y3.512
N12045 X36.898 Y0.948
N12050 X36.9 Y-4.179
N12055 Y-13.152
N12060 X36.88 Y-14.433
N12065 X36.701 Y-15.703
N12070 X36.331 Y-16.93
N12075 X35.772 Y-18.084
N12080 X35.043 Y-19.138
N12085 X34.167 Y-20.073
N12090 X33.171 Y-20.88
N12095 X32.081 Y-21.555
N12100 X30.921 Y-22.101
N12105 X29.713 Y-22.529
N12110 X28.473 Y-22.853
N12115 X27.214 Y-23.092
N12120 X25.943 Y-23.262
N12125 X24.667 Y-23.38
N12130 X23.387 Y-23.458
N12135 X22.107 Y-23.51
N12140 X20.825 Y-23.543
N12145 X19.544 Y-23.565
N12150 X18.262 Y-23.578
N12155 X16.98 Y-23.586
N12160 X15.698 Y-23.592
N12165 X14.417 Y-23.595
N12170 X11.853 Y-23.598
N12175 X6.726 Y-23.6
N12180 X-9.938
N12185 X-25.319
N12190 X-26.601 Y-23.58
N12195 X-27.873 Y-23.423
N12200 X-29.109 Y-23.082
N12205 X-30.278 Y-22.557
N12210 X-31.355 Y-21.862
N12215 X-32.319 Y-21.017
N12220 X-33.156 Y-20.046
N12225 X-33.863 Y-18.977
N12230 X-34.442 Y-17.833
N12235 X-34.903 Y-16.637
N12240 X-35.257 Y-15.405
N12245 X-35.52 Y-14.151
N12250 X-35.71 Y-12.883
N12255 X-35.842 Y-11.608
N12260 X-35.933 Y-10.33
N12265 X-35.993 Y-9.049
N12270 X-36.032 Y-7.768
N12275 X-36.057 Y-6.486
N12280 X-36.073 Y-5.205
N12285 X-36.083 Y-3.923
N12290 X-36.09 Y-2.641
N12295 X-36.094 Y-1.359
N12300 X-36.098 Y1.204
N12305 X-36.1 Y6.331
N12310 Y12.74
N12315 X-36.082 Y14.022
N12320 X-35.933 Y15.295
N12325 X-35.604 Y16.534
N12330 X-35.089 Y17.708
N12335 X-34.403 Y18.79
N12340 X-33.565 Y19.761
N12345 X-32.602 Y20.607
N12350 X-31.539 Y21.323
N12355 X-30.4 Y21.911
N12360 X-29.206 Y22.378
N12365 X-27.976 Y22.737
N12370 X-26.723 Y23.005
N12375 X-25.455 Y23.199
N12380 X-24.181 Y23.335
N12385 X-22.903 Y23.428
N12390 X-21.622 Y23.49
N12395 X-20.341 Y23.53
N12400 X-19.059 Y23.556
N12405 X-17.778 Y23.573
N12410 X-16.496 Y23.583
N12415 X-15.214 Y23.59
N12420 X-13.932 Y23.594
N12425 X-11.369 Y23.598
N12430 X-6.242 Y23.6
N12435 X2.731
N12440 X25.803
N12445 X27.084 Y23.538
N12450 X28.345 Y23.312
N12455 X29.56 Y22.901
N12460 X30.697 Y22.311
N12465 X31.734 Y21.556
N12470 X32.651 Y20.661
N12475 X33.439 Y19.65
N12480 X34.097 Y18.55
N12485 X34.63 Y17.384
N12490 X35.048 Y16.173
N12495 X35.366 Y14.931
N12500 X35.6 Y13.671
N12505 X35.766 Y12.4
N12510 X35.881 Y11.123
N12515 X35.958 Y9.843
N12520 X36.009 Y8.563
N12525 X36.043 Y7.281
N12530 X36.064 Y6.
N12535 X36.078 Y4.718
N12540 X36.086 Y3.436
N12545 X36.092 Y2.154
N12550 X36.095 Y0.873
N12555 X36.098 Y-1.691
N12560 X36.1 Y-6.818
N12565 Y-10.664
N12570 X36.097 Y-11.945
N12575 X36.036 Y-13.226
N12580 X35.83 Y-14.491
N12585 X35.453 Y-15.716
N12590 X34.903 Y-16.874
N12595 X34.191 Y-17.94
N12600 X33.338 Y-18.896
N12605 X32.366 Y-19.732
N12610 X31.299 Y-20.443
N12615 X30.16 Y-21.03
N12620 X28.967 Y-21.5
N12625 X27.739 Y-21.867
N12630 X26.488 Y-22.145
N12635 X25.222 Y-22.349
N12640 X23.949 Y-22.496
N12645 X22.671 Y-22.598
N12650 X21.391 Y-22.668
N12655 X20.11 Y-22.714
N12660 X18.829 Y-22.745
N12665 X17.547 Y-22.765
N12670 X16.266 Y-22.778
N12675 X14.984 Y-22.786
N12680 X13.702 Y-22.791
N12685 X12.42 Y-22.794
N12690 X9.857 Y-22.798
N12695 X4.729 Y-22.8
N12700 X3.448
N12705 X-23.47
N12710 X-24.752 Y-22.785
N12715 X-26.029 Y-22.677
N12720 X-27.284 Y-22.417
N12725 X-28.491 Y-21.985
N12730 X-29.624 Y-21.386
N12735 X-30.661 Y-20.633
N12740 X-31.586 Y-19.745
N12745 X-32.39 Y-18.747
N12750 X-33.07 Y-17.66
N12755 X-33.629 Y-16.506
N12760 X-34.076 Y-15.305
N12765 X-34.424 Y-14.072
N12770 X-34.686 Y-12.817
N12775 X-34.877 Y-11.549
N12780 X-35.014 Y-10.275
N12785 X-35.109 Y-8.997
N12790 X-35.175 Y-7.716
N12795 X-35.218 Y-6.435
N12800 X-35.247 Y-5.154
N12805 X-35.266 Y-3.872
N12810 X-35.279 Y-2.591
N12815 X-35.286 Y-1.309
N12820 X-35.291 Y-0.027
N12825 X-35.295 Y1.255
N12830 X-35.298 Y3.818
N12835 X-35.3 Y8.946
N12840 Y10.227
N12845 X-35.297 Y11.509
N12850 X-35.254 Y12.79
N12855 X-35.085 Y14.061
N12860 X-34.752 Y15.299
N12865 X-34.249 Y16.478
N12870 X-33.583 Y17.573
N12875 X-32.771 Y18.565
N12880 X-31.835 Y19.44
N12885 X-30.797 Y20.192
N12890 X-29.68 Y20.821
N12895 X-28.504 Y21.33
N12900 X-27.287 Y21.733
N12905 X-26.043 Y22.042
N12910 X-24.782 Y22.273
N12915 X-23.511 Y22.44
N12920 X-22.235 Y22.559
N12925 X-20.956 Y22.641
N12930 X-19.675 Y22.696
N12935 X-18.394 Y22.733
N12940 X-17.112 Y22.757
N12945 X-15.83 Y22.772
N12950 X-14.549 Y22.782
N12955 X-13.267 Y22.789
N12960 X-11.985 Y22.793
N12965 X-9.421 Y22.797
N12970 X-6.858 Y22.799
N12975 X5.96 Y22.8
N12980 X23.905
N12985 X25.187 Y22.762
N12990 X26.459 Y22.605
N12995 X27.7 Y22.287
N13000 X28.885 Y21.797
N13005 X29.988 Y21.144
N13010 X30.989 Y20.343
N13015 X31.873 Y19.415
N13020 X32.634 Y18.384
N13025 X33.272 Y17.272
N13030 X33.793 Y16.101
N13035 X34.205 Y14.887
N13040 X34.522 Y13.645
N13045 X34.758 Y12.385
N13050 X34.929 Y11.115
N13055 X35.05 Y9.839
N13060 X35.134 Y8.56
N13065 X35.191 Y7.279
N13070 X35.23 Y5.998
N13075 X35.255 Y4.717
N13080 X35.271 Y3.435
N13085 X35.282 Y2.153
N13090 X35.288 Y0.871
N13095 X35.293 Y-0.41
N13100 X35.295 Y-1.692
N13105 X35.298 Y-4.256
N13110 X35.3 Y-8.101
N13115 X35.299 Y-9.383
N13120 X35.288 Y-10.665
N13125 X35.214 Y-11.944
N13130 X35.011 Y-13.21
N13135 X34.648 Y-14.44
N13140 X34.124 Y-15.609
N13145 X33.444 Y-16.696
N13150 X32.624 Y-17.681
N13155 X31.684 Y-18.553
N13160 X30.645 Y-19.304
N13165 X29.529 Y-19.934
N13170 X28.356 Y-20.449
N13175 X27.141 Y-20.86
N13180 X25.9 Y-21.179
N13185 X24.641 Y-21.42
N13190 X23.372 Y-21.598
N13195 X22.096 Y-21.726
N13200 X20.818 Y-21.816
N13205 X19.537 Y-21.877
N13210 X18.256 Y-21.919
N13215 X16.975 Y-21.947
N13220 X15.693 Y-21.965
N13225 X14.411 Y-21.978
N13230 X13.13 Y-21.986
N13235 X11.848 Y-21.991
N13240 X10.566 Y-21.994
N13245 X9.284 Y-21.996
N13250 X5.439 Y-21.999
N13255 X-9.943 Y-22.
N13260 X-21.479
N13265 X-22.761 Y-21.995
N13270 X-24.041 Y-21.938
N13275 X-25.312 Y-21.767
N13280 X-26.553 Y-21.446
N13285 X-27.74 Y-20.963
N13290 X-28.851 Y-20.323
N13295 X-29.865 Y-19.54
N13300 X-30.77 Y-18.632
N13305 X-31.558 Y-17.621
N13310 X-32.227 Y-16.527
N13315 X-32.78 Y-15.371
N13320 X-33.226 Y-14.169
N13325 X-33.574 Y-12.936
N13330 X-33.839 Y-11.682
N13335 X-34.037 Y-10.415
N13340 X-34.181 Y-9.142
N13345 X-34.283 Y-7.864
N13350 X-34.354 Y-6.584
N13355 X-34.403 Y-5.303
N13360 X-34.436 Y-4.022
N13365 X-34.458 Y-2.74
N13370 X-34.473 Y-1.458
N13375 X-34.482 Y-0.177
N13380 X-34.489 Y1.105
N13385 X-34.493 Y2.387
N13390 X-34.497 Y4.951
N13395 X-34.499 Y8.796
N13400 X-34.494 Y10.078
N13405 X-34.45 Y11.359
N13410 X-34.297 Y12.631
N13415 X-33.998 Y13.878
N13420 X-33.538 Y15.074
N13425 X-32.921 Y16.198
N13430 X-32.159 Y17.228
N13435 X-31.268 Y18.15
N13440 X-30.27 Y18.955
N13445 X-29.186 Y19.639
N13450 X-28.037 Y20.207
N13455 X-26.84 Y20.666
N13460 X-25.611 Y21.028
N13465 X-24.359 Y21.306
N13470 X-23.095 Y21.514
N13475 X-21.822 Y21.664
N13480 X-20.544 Y21.772
N13485 X-19.265 Y21.846
N13490 X-17.984 Y21.898
N13495 X-16.703 Y21.933
N13500 X-15.421 Y21.956
N13505 X-14.139 Y21.971
N13510 X-12.858 Y21.981
N13515 X-11.576 Y21.988
N13520 X-10.294 Y21.992
N13525 X-9.012 Y21.995
N13530 X-6.449 Y21.998
N13535 X-0.04 Y22.
N13540 X21.751
N13545 X23.033 Y21.989
N13550 X24.312 Y21.912
N13555 X25.578 Y21.71
N13560 X26.81 Y21.355
N13565 X27.983 Y20.839
N13570 X29.074 Y20.167
N13575 X30.067 Y19.356
N13580 X30.948 Y18.425
N13585 X31.71 Y17.394
N13590 X32.355 Y16.286
N13595 X32.884 Y15.119
N13600 X33.307 Y13.909
N13605 X33.636 Y12.67
N13610 X33.886 Y11.413
N13615 X34.071 Y10.144
N13620 X34.205 Y8.87
N13625 X34.3 Y7.591
N13630 X34.366 Y6.311
N13635 X34.411 Y5.03
N13640 X34.442 Y3.749
N13645 X34.462 Y2.467
N13650 X34.475 Y1.185
N13655 X34.484 Y-0.096
N13660 X34.49 Y-1.378
N13665 X34.493 Y-2.66
N13670 X34.497 Y-5.224
N13675 X34.498 Y-7.787
N13680 X34.489 Y-9.069
N13685 X34.433 Y-10.349
N13690 X34.271 Y-11.621
N13695 X33.97 Y-12.867
N13700 X33.512 Y-14.064
N13705 X32.901 Y-15.191
N13710 X32.148 Y-16.228
N13715 X31.268 Y-17.16
N13720 X30.281 Y-17.978
N13725 X29.208 Y-18.679
N13730 X28.068 Y-19.266
N13735 X26.879 Y-19.745
N13740 X25.656 Y-20.127
N13745 X24.409 Y-20.424
N13750 X23.147 Y-20.647
N13755 X21.875 Y-20.813
N13760 X20.599 Y-20.932
N13765 X19.32 Y-21.017
N13770 X18.04 Y-21.076
N13775 X16.759 Y-21.117
N13780 X15.477 Y-21.145
N13785 X14.196 Y-21.164
N13790 X12.914 Y-21.176
N13795 X11.632 Y-21.184
N13800 X10.35 Y-21.19
N13805 X9.068 Y-21.193
N13810 X7.787 Y-21.196
N13815 X3.941 Y-21.199
N13820 X-7.595 Y-21.2
N13825 X-19.131
N13830 X-20.413 Y-21.199
N13835 X-21.695 Y-21.184
N13840 X-22.974 Y-21.112
N13845 X-24.243 Y-20.93
N13850 X-25.483 Y-20.602
N13855 X-26.671 Y-20.122
N13860 X-27.788 Y-19.493
N13865 X-28.813 Y-18.723
N13870 X-29.733 Y-17.83
N13875 X-30.539 Y-16.834
N13880 X-30.697 Y-16.613
N13885 X-30.876 Y-16.409
N13890 X-31.076 Y-16.225
N13895 X-31.16 Y-16.154
N13900 X-31.462 Y-15.872
N13905 X-31.538 Y-15.796
N13910 X-31.841 Y-15.437
N13915 X-32.113 Y-15.078
N13920 X-32.356 Y-14.719
N13925 X-32.54 Y-14.374
N13930 X-32.868 Y-13.642
N13935 X-32.9 Y-13.535
N13940 X-33.077 Y-12.924
N13945 X-33.157 Y-12.565
N13950 X-33.204 Y-12.206
N13955 X-33.231 Y-11.847
N13960 X-33.232 Y-11.814
N13965 X-33.33 Y-10.536
N13970 X-33.402 Y-9.256
N13975 X-33.472 Y-7.976
N13980 X-33.532 Y-6.696
N13985 X-33.579 Y-5.415
N13990 X-33.614 Y-4.133
N13995 X-33.641 Y-2.852
N14000 X-33.659 Y-1.57
N14005 X-33.672 Y-0.288
N14010 X-33.682 Y0.993
N14015 X-33.688 Y2.275
N14020 X-33.692 Y3.557
N14025 X-33.697 Y6.12
N14030 Y7.402
N14035 X-33.691 Y8.684
N14040 X-33.648 Y9.965
N14045 X-33.514 Y11.24
N14050 X-33.248 Y12.494
N14055 X-32.969 Y13.302
N14060 X-32.936 Y13.409
N14065 X-32.868 Y13.642
N14070 X-32.54 Y14.374
N14075 X-32.356 Y14.719
N14080 X-32.113 Y15.078
N14085 X-31.841 Y15.437
N14090 X-31.821 Y15.46
N14095 X-31.044 Y16.48
N14100 X-30.133 Y17.381
N14105 X-29.12 Y18.168
N14110 X-28.028 Y18.838
N14115 X-26.874 Y19.397
N14120 X-25.675 Y19.849
N14125 X-24.444 Y20.207
N14130 X-23.192 Y20.482
N14135 X-21.927 Y20.69
N14140 X-20.655 Y20.842
N14145 X-19.378 Y20.953
N14150 X-18.098 Y21.031
N14155 X-16.818 Y21.086
N14160 X-15.536 Y21.124
N14165 X-14.255 Y21.149
N14170 X-12.973 Y21.166
N14175 X-11.691 Y21.178
N14180 X-10.41 Y21.186
N14185 X-9.128 Y21.191
N14190 X-7.846 Y21.194
N14195 X-5.282 Y21.197
N14200 X-0.155 Y21.2
N14205 X17.79
N14210 X19.072
N14215 X20.354 Y21.199
N14220 X21.635 Y21.185
N14225 X22.915 Y21.118
N14230 X24.185 Y20.94
N14235 X25.426 Y20.62
N14240 X26.617 Y20.146
N14245 X27.737 Y19.522
N14250 X28.766 Y18.758
N14255 X29.691 Y17.871
N14260 X30.502 Y16.878
N14265 X30.676 Y16.636
N14270 X30.873 Y16.414
N14275 X31.092 Y16.212
N14280 X31.16 Y16.154
N14285 X31.462 Y15.872
N14290 X31.538 Y15.796
N14295 X31.841 Y15.437
N14300 X32.113 Y15.078
N14305 X32.356 Y14.719
N14310 X32.54 Y14.374
N14315 X32.868 Y13.642
N14320 X32.9 Y13.535
N14325 X33.077 Y12.924
N14330 X33.157 Y12.565
N14335 X33.204 Y12.206
N14340 X33.231 Y11.847
N14345 X33.232 Y11.814
N14350 X33.33 Y10.536
N14355 X33.403 Y9.256
N14360 X33.473 Y7.976
N14365 X33.533 Y6.696
N14370 X33.58 Y5.415
N14375 X33.615 Y4.133
N14380 X33.641 Y2.852
N14385 X33.66 Y1.57
N14390 X33.673 Y0.289
N14395 X33.682 Y-0.993
N14400 X33.688 Y-2.275
N14405 X33.692 Y-3.557
N14410 X33.695 Y-4.839
N14415 X33.696 Y-6.12
N14420 X33.691 Y-7.402
N14425 X33.653 Y-8.683
N14430 X33.539 Y-9.96
N14435 X33.3 Y-11.22
N14440 X33.268 Y-11.343
N14445 X33.247 Y-11.469
N14450 X33.238 Y-11.597
N14455 X33.231 Y-11.847
N14460 X33.204 Y-12.206
N14465 X33.157 Y-12.565
N14470 X33.077 Y-12.924
N14475 X32.9 Y-13.535
N14480 X32.868 Y-13.642
N14485 X32.54 Y-14.374
N14490 X32.356 Y-14.719
N14495 X32.113 Y-15.078
N14500 X31.841 Y-15.437
N14505 X31.538 Y-15.796
N14510 X31.462 Y-15.872
N14515 X31.16 Y-16.154
N14520 X30.729 Y-16.513
N14525 X30.187 Y-16.872
N14530 X30.16 Y-16.888
N14535 X29.087 Y-17.59
N14540 X27.95 Y-18.182
N14545 X26.77 Y-18.683
N14550 X25.556 Y-19.095
N14555 X24.318 Y-19.425
N14560 X23.063 Y-19.685
N14565 X21.796 Y-19.883
N14570 X20.523 Y-20.032
N14575 X19.246 Y-20.141
N14580 X17.967 Y-20.22
N14585 X16.686 Y-20.277
N14590 X15.405 Y-20.316
N14595 X14.123 Y-20.343
N14600 X12.842 Y-20.362
N14605 X11.56 Y-20.375
N14610 X10.278 Y-20.383
N14615 X8.996 Y-20.389
N14620 X7.715 Y-20.393
N14625 X5.151 Y-20.397
N14630 X1.306 Y-20.399
N14635 X-16.64 Y-20.4
N14640 X-17.921
N14645 X-19.203 Y-20.397
N14650 X-20.485 Y-20.378
N14655 X-21.765 Y-20.307
N14660 X-23.034 Y-20.13
N14665 X-24.278 Y-19.822
N14670 X-25.476 Y-19.366
N14675 X-26.607 Y-18.763
N14680 X-27.661 Y-18.033
N14685 X-27.976 Y-17.81
N14690 X-28.318 Y-17.632
N14695 X-28.68 Y-17.502
N14700 X-28.945 Y-17.427
N14705 X-29.304 Y-17.294
N14710 X-29.566 Y-17.179
N14715 X-29.575 Y-17.176 Z-7.999
N14720 G2 X-31.101 Y-16.535 Z-7.822 I1.055 J4.647
N14725 G1 X-31.187 Y-16.474 Z-7.811
N14730 X-31.267 Y-16.406 Z-7.8
N14735 G2 X-31.442 Y-16.203 I0.816 J0.88
N14740 G1 X-33.005 Y-13.915
N14745 G2 X-33.13 Y-13.68 I0.991 J0.677
N14750 G1 X-33.165 Y-13.58 Z-7.811
N14755 X-33.19 Y-13.477 Z-7.822
N14760 G2 X-33.233 Y-11.823 Z-7.999 I4.67 J0.948
N14765 G1 X-33.232 Y-11.814 Z-8.
N14770 X-33.25 Y-11.129
N14775 Y11.129
N14780 X-33.236 Y11.685
N14785 Y11.695
N14790 G2 X-33.291 Y12.391 I3.953 J0.662
N14795 X-33.215 Y12.802 I1.2 J-0.01
N14800 G1 X-32.539 Y14.605
N14805 G2 X-32.327 Y14.965 I1.124 J-0.421
N14810 X-31.828 Y15.454 I3.044 J-2.608
N14815 G1 X-31.821 Y15.46
N14820 X-31.538 Y15.796
N14825 X-31.462 Y15.872
N14830 X-31.16 Y16.154
N14835 X-30.729 Y16.513
N14840 X-30.187 Y16.872
N14845 X-30.023 Y16.968
N14850 X-29.664 Y17.135
N14855 X-28.518 Y17.711
N14860 X-27.35 Y18.237
N14865 X-26.153 Y18.698
N14870 X-24.932 Y19.087
N14875 X-23.691 Y19.407
N14880 X-22.435 Y19.663
N14885 X-21.169 Y19.862
N14890 X-19.896 Y20.014
N14895 X-18.619 Y20.126
N14900 X-17.34 Y20.209
N14905 X-16.059 Y20.268
N14910 X-14.778 Y20.31
N14915 X-13.497 Y20.339
N14920 X-12.215 Y20.359
N14925 X-10.934 Y20.372
N14930 X-9.652 Y20.381
N14935 X-8.37 Y20.388
N14940 X-7.088 Y20.392
N14945 X-4.525 Y20.396
N14950 X-0.679 Y20.399
N14955 X14.702 Y20.4
N14960 X18.548
N14965 X19.83 Y20.394
N14970 X21.111 Y20.353
N14975 X22.387 Y20.236
N14980 X23.646 Y19.997
N14985 X24.871 Y19.617
N14990 X26.038 Y19.088
N14995 X27.132 Y18.42
N15000 X27.642 Y18.033
N15005 X27.983 Y17.806
N15010 X28.35 Y17.623
N15015 X28.736 Y17.486
N15020 X28.746 Y17.485 Z-7.999
N15025 G2 X30.411 Y17.043 Z-7.815 I-0.419 J-4.941
N15030 G1 X30.475 Y17.011 Z-7.808
N15035 X30.537 Y16.976 Z-7.8
N15040 G2 X30.847 Y16.7 I-0.63 J-1.021
N15045 G1 X32.949 Y14.047
N15050 G2 X33.146 Y13.683 I-0.941 J-0.745
N15055 G1 X33.167 Y13.614 Z-7.808
N15060 X33.184 Y13.544 Z-7.815
N15065 G2 X33.233 Y11.822 Z-7.999 I-4.857 J-1.001
N15070 G1 X33.232 Y11.814 Z-8.
N15075 X33.25 Y11.129
N15080 Y-11.129
N15085 X33.238 Y-11.597
N15090 X33.239 Y-11.607 Z-7.999
N15095 G2 X33.224 Y-13.267 Z-7.822 I-4.714 J-0.79
N15100 G1 X33.201 Y-13.367 Z-7.811
N15105 X33.17 Y-13.465 Z-7.8
N15110 X33.13 Y-13.56
N15115 X33.082 Y-13.652
N15120 X31.868 Y-15.738
N15125 X31.813 Y-15.824
N15130 X31.75 Y-15.906
N15135 X31.68 Y-15.982 Z-7.811
N15140 X31.604 Y-16.052 Z-7.822
N15145 G2 X30.168 Y-16.885 Z-7.999 I-3.079 J3.656
N15150 G1 X30.16 Y-16.888 Z-8.
N15155 X30.023 Y-16.968
N15160 X29.664 Y-17.135
N15165 X29.304 Y-17.294
N15170 X28.945 Y-17.427
N15175 X28.37 Y-17.59
N15180 X28.226 Y-17.625
N15185 X28.193 Y-17.63
N15190 X28.072 Y-17.657
N15195 X26.826 Y-17.958
N15200 X25.583 Y-18.271
N15205 X24.333 Y-18.553
N15210 X23.074 Y-18.794
N15215 X21.807 Y-18.992
N15220 X20.535 Y-19.149
N15225 X19.259 Y-19.271
N15230 X17.981 Y-19.363
N15235 X16.701 Y-19.432
N15240 X15.42 Y-19.482
N15245 X14.139 Y-19.518
N15250 X12.857 Y-19.543
N15255 X11.576 Y-19.561
N15260 X10.294 Y-19.574
N15265 X9.012 Y-19.582
N15270 X7.73 Y-19.588
N15275 X6.449 Y-19.592
N15280 X3.885 Y-19.596
N15285 X0.04 Y-19.599
N15290 X-15.342 Y-19.6
N15295 X-16.624
N15300 X-17.906 Y-19.596
N15305 X-19.187 Y-19.577
N15310 X-20.468 Y-19.513
N15315 X-21.74 Y-19.355
N15320 X-22.991 Y-19.076
N15325 X-24.205 Y-18.665
N15330 X-25.378 Y-18.149
N15335 X-25.557 Y-18.063
N15340 X-25.988 Y-17.894
N15345 X-26.439 Y-17.786
N15350 X-26.9 Y-17.743
N15355 X-27.147 Y-17.737
N15360 G3 X-27.874 Y-17.994 I0.014 J-1.2
N15365 G1 X-27.98 Y-18.077 Z-7.992
N15370 X-28.084 Y-18.159 Z-7.97
N15375 X-28.186 Y-18.239 Z-7.933
N15380 X-28.284 Y-18.315 Z-7.881
N15385 X-28.376 Y-18.388 Z-7.816
N15390 X-28.463 Y-18.456 Z-7.738
N15395 X-28.542 Y-18.518 Z-7.649
N15400 X-28.612 Y-18.573 Z-7.548
N15405 X-28.673 Y-18.622 Z-7.438
N15410 X-28.725 Y-18.662 Z-7.321
N15415 X-28.765 Y-18.694 Z-7.196
N15420 X-28.794 Y-18.717 Z-7.067
N15425 X-28.812 Y-18.731 Z-6.934
N15430 X-28.818 Y-18.735 Z-6.8
N15435 G0 Z5.
N15440 G1 X-31.634 Y17.179 F5000.
N15445 G0 Z-5.6
N15450 G1 Z-6.8 F2160.
N15455 X-31.626 Y17.178 Z-6.934
N15460 X-31.604 Y17.175 Z-7.067
N15465 X-31.567 Y17.171 Z-7.196
N15470 X-31.516 Y17.165 Z-7.321
N15475 X-31.451 Y17.157 Z-7.438
N15480 X-31.374 Y17.147 Z-7.548
N15485 X-31.285 Y17.137 Z-7.649
N15490 X-31.185 Y17.124 Z-7.738
N15495 X-31.076 Y17.111 Z-7.816
N15500 X-30.959 Y17.097 Z-7.881
N15505 X-30.836 Y17.082 Z-7.933
N15510 X-30.708 Y17.066 Z-7.97
N15515 X-30.576 Y17.05 Z-7.992
N15520 X-30.443 Y17.034 Z-8.
N15525 G3 X-29.664 Y17.135 I0.191 J1.571
N15530 G1 X-29.304 Y17.294
N15535 X-28.945 Y17.427
N15540 X-28.37 Y17.59
N15545 X-28.226 Y17.625
N15550 X-27.866 Y17.685
N15555 X-27.642 Y17.724
N15560 X-26.991 Y17.847
N15565 X-25.738 Y18.118
N15570 X-24.487 Y18.397
N15575 X-23.23 Y18.651
N15580 X-21.967 Y18.868
N15585 X-20.698 Y19.047
N15590 X-19.424 Y19.189
N15595 X-18.147 Y19.3
N15600 X-16.868 Y19.384
N15605 X-15.587 Y19.446
N15610 X-14.306 Y19.492
N15615 X-13.025 Y19.525
N15620 X-11.743 Y19.548
N15625 X-10.462 Y19.564
N15630 X-9.18 Y19.576
N15635 X-7.898 Y19.584
N15640 X-6.616 Y19.589
N15645 X-5.335 Y19.593
N15650 X-2.771 Y19.597
N15655 X1.074 Y19.599
N15660 X16.456 Y19.6
N15665 X17.738 Y19.598
N15670 X19.019 Y19.584
N15675 X20.3 Y19.526
N15680 X21.574 Y19.383
N15685 X22.828 Y19.121
N15690 X24.047 Y18.724
N15695 X25.225 Y18.219
N15700 X25.562 Y18.06
N15705 X25.991 Y17.892
N15710 X26.439 Y17.786
N15715 X26.898 Y17.743
N15720 X27.147 Y17.737
N15725 G3 X27.874 Y17.994 I-0.014 J1.2
N15730 G1 X27.98 Y18.077 Z-7.992
N15735 X28.084 Y18.159 Z-7.97
N15740 X28.186 Y18.239 Z-7.933
N15745 X28.284 Y18.315 Z-7.881
N15750 X28.376 Y18.388 Z-7.816
N15755 X28.463 Y18.456 Z-7.738
N15760 X28.542 Y18.518 Z-7.649
N15765 X28.612 Y18.573 Z-7.548
N15770 X28.673 Y18.622 Z-7.438
N15775 X28.725 Y18.662 Z-7.321
N15780 X28.765 Y18.694 Z-7.196
N15785 X28.794 Y18.717 Z-7.067
N15790 X28.812 Y18.731 Z-6.934
N15795 X28.818 Y18.735 Z-6.8
N15800 G0 Z5.
N15805 G1 X30.091 Y-18.16 F5000.
N15810 G0 Z-5.6
N15815 G1 Z-6.8 F2160.
N15820 X30.084 Y-18.157 Z-6.934
N15825 X30.063 Y-18.149 Z-7.067
N15830 X30.028 Y-18.135 Z-7.196
N15835 X29.98 Y-18.117 Z-7.321
N15840 X29.919 Y-18.093 Z-7.438
N15845 X29.847 Y-18.065 Z-7.548
N15850 X29.763 Y-18.032 Z-7.649
N15855 X29.67 Y-17.996 Z-7.738
N15860 X29.567 Y-17.956 Z-7.816
N15865 X29.458 Y-17.913 Z-7.881
N15870 X29.342 Y-17.868 Z-7.933
N15875 X29.221 Y-17.821 Z-7.97
N15880 X29.098 Y-17.773 Z-7.992
N15885 X28.972 Y-17.724 Z-8.
N15890 G3 X28.193 Y-17.63 I-0.574 J-1.475
N15895 G1 X27.866 Y-17.685
N15900 X27.506 Y-17.729
N15905 X26.787 Y-17.746
N15910 X26.428 Y-17.75
N15915 X26.045 Y-17.769
N15920 X25.588 Y-17.795
N15925 X24.708 Y-17.867
N15930 X23.434 Y-18.004
N15935 X22.16 Y-18.153
N15940 X20.886 Y-18.29
N15945 X19.61 Y-18.408
N15950 X18.331 Y-18.504
N15955 X17.052 Y-18.581
N15960 X15.771 Y-18.64
N15965 X14.49 Y-18.685
N15970 X13.209 Y-18.718
N15975 X11.928 Y-18.742
N15980 X10.646 Y-18.76
N15985 X9.364 Y-18.772
N15990 X8.082 Y-18.781
N15995 X6.801 Y-18.787
N16000 X5.519 Y-18.791
N16005 X2.955 Y-18.796
N16010 X-0.89 Y-18.799
N16015 X-12.426 Y-18.8
N16020 X-14.99
N16025 X-16.272 Y-18.798
N16030 X-17.554 Y-18.786
N16035 X-18.835 Y-18.741
N16040 X-20.112 Y-18.63
N16045 X-21.376 Y-18.419
N16050 X-22.619 Y-18.107
N16055 X-23.3 Y-17.897
N16060 X-23.618 Y-17.815
N16065 X-23.944 Y-17.766
N16070 X-24.273 Y-17.75
N16075 X-26.428
N16080 X-26.821 Y-17.745
N16085 X-26.9 Y-17.743
N16090 G3 X-27.628 Y-17.999 I0.014 J-1.2
N16095 G1 X-27.733 Y-18.082 Z-7.992
N16100 X-27.838 Y-18.164 Z-7.97
N16105 X-27.939 Y-18.244 Z-7.933
N16110 X-28.037 Y-18.321 Z-7.881
N16115 X-28.13 Y-18.394 Z-7.816
N16120 X-28.216 Y-18.462 Z-7.738
N16125 X-28.295 Y-18.524 Z-7.649
N16130 X-28.365 Y-18.579 Z-7.548
N16135 X-28.427 Y-18.627 Z-7.438
N16140 X-28.478 Y-18.668 Z-7.321
N16145 X-28.518 Y-18.699 Z-7.196
N16150 X-28.548 Y-18.722 Z-7.067
N16155 X-28.565 Y-18.736 Z-6.934
N16160 X-28.571 Y-18.741 Z-6.8
N16165 G0 Z5.
N16170 G1 X-29.739 Y18.296 F5000.
N16175 G0 Z-5.6
N16180 G1 Z-6.8 F2160.
N16185 X-29.732 Y18.293 Z-6.934
N16190 X-29.712 Y18.284 Z-7.067
N16195 X-29.678 Y18.269 Z-7.196
N16200 X-29.631 Y18.248 Z-7.321
N16205 X-29.571 Y18.222 Z-7.438
N16210 X-29.5 Y18.19 Z-7.548
N16215 X-29.418 Y18.154 Z-7.649
N16220 X-29.326 Y18.114 Z-7.738
N16225 X-29.225 Y18.07 Z-7.816
N16230 X-29.118 Y18.022 Z-7.881
N16235 X-29.004 Y17.972 Z-7.933
N16240 X-28.885 Y17.92 Z-7.97
N16245 X-28.764 Y17.867 Z-7.992
N16250 X-28.641 Y17.813 Z-8.
N16255 G3 X-27.866 Y17.685 I0.637 J1.449
N16260 G1 X-27.506 Y17.729
N16265 X-26.787 Y17.746
N16270 X-26.428 Y17.75
N16275 X-26.068
N16280 X-25.486 Y17.779
N16285 X-25.007 Y17.802
N16290 X-24.23 Y17.859
N16295 X-22.954 Y17.987
N16300 X-21.68 Y18.13
N16305 X-20.406 Y18.267
N16310 X-19.13 Y18.386
N16315 X-17.852 Y18.485
N16320 X-16.572 Y18.565
N16325 X-15.292 Y18.627
N16330 X-14.011 Y18.674
N16335 X-12.73 Y18.71
N16340 X-11.448 Y18.736
N16345 X-10.167 Y18.755
N16350 X-8.885 Y18.769
N16355 X-7.603 Y18.778
N16360 X-6.321 Y18.785
N16365 X-5.04 Y18.79
N16370 X-3.758 Y18.793
N16375 X-1.194 Y18.797
N16380 X3.933 Y18.799
N16385 X14.187 Y18.8
N16390 X15.469 Y18.799
N16395 X16.751 Y18.796
N16400 X18.033 Y18.776
N16405 X19.313 Y18.712
N16410 X20.586 Y18.563
N16415 X21.843 Y18.311
N16420 X23.078 Y17.967
N16425 X23.293 Y17.9
N16430 X23.615 Y17.817
N16435 X23.944 Y17.767
N16440 X24.277 Y17.75
N16445 X26.428
N16450 X26.821 Y17.745
N16455 X26.898 Y17.743
N16460 G3 X27.626 Y17.999 I-0.014 J1.2
N16465 G1 X27.731 Y18.082 Z-7.992
N16470 X27.836 Y18.164 Z-7.97
N16475 X27.937 Y18.244 Z-7.933
N16480 X28.035 Y18.321 Z-7.881
N16485 X28.128 Y18.394 Z-7.816
N16490 X28.214 Y18.462 Z-7.738
N16495 X28.293 Y18.524 Z-7.649
N16500 X28.363 Y18.579 Z-7.548
N16505 X28.425 Y18.627 Z-7.438
N16510 X28.476 Y18.668 Z-7.321
N16515 X28.516 Y18.699 Z-7.196
N16520 X28.546 Y18.722 Z-7.067
N16525 X28.563 Y18.736 Z-6.934
N16530 X28.569 Y18.741 Z-6.8
N16535 G0 Z5.
N16540 G1 X28.213 Y-18.585 F5000.
N16545 G0 Z-5.6
N16550 G1 Z-6.8 F2160.
N16555 X28.206 Y-18.581 Z-6.934
N16560 X28.187 Y-18.569 Z-7.067
N16565 X28.155 Y-18.55 Z-7.196
N16570 X28.111 Y-18.524 Z-7.321
N16575 X28.055 Y-18.491 Z-7.438
N16580 X27.988 Y-18.451 Z-7.548
N16585 X27.911 Y-18.405 Z-7.649
N16590 X27.824 Y-18.354 Z-7.738
N16595 X27.73 Y-18.298 Z-7.816
N16600 X27.629 Y-18.237 Z-7.881
N16605 X27.522 Y-18.174 Z-7.933
N16610 X27.411 Y-18.108 Z-7.97
N16615 X27.297 Y-18.04 Z-7.992
N16620 X27.181 Y-17.971 Z-8.
N16625 G3 X26.428 Y-17.75 I-0.809 J-1.36
N16630 G1 X20.315
N16635 X19.035 Y-17.814
N16640 X17.753 Y-17.817
N16645 X16.472 Y-17.842
N16650 X15.19 Y-17.871
N16655 X13.909 Y-17.899
N16660 X12.627 Y-17.924
N16665 X11.346 Y-17.943
N16670 X10.064 Y-17.959
N16675 X8.782 Y-17.97
N16680 X7.5 Y-17.979
N16685 X6.218 Y-17.985
N16690 X4.937 Y-17.99
N16695 X2.373 Y-17.995
N16700 X-1.472 Y-17.998
N16705 X-10.445 Y-18.
N16710 X-14.29 Y-17.999
N16715 X-15.572 Y-17.995
N16720 X-16.854 Y-17.976
N16725 X-18.134 Y-17.915
N16730 X-19.409 Y-17.786
N16735 X-19.559 Y-17.766
N16740 X-19.709 Y-17.754
N16745 X-19.86 Y-17.75
N16750 X-24.273
N16755 G3 X-24.994 Y-18.023 I0.042 J-1.199
N16760 G1 X-25.098 Y-18.109 Z-7.992
N16765 X-25.2 Y-18.193 Z-7.97
N16770 X-25.3 Y-18.275 Z-7.933
N16775 X-25.396 Y-18.355 Z-7.881
N16780 X-25.487 Y-18.429 Z-7.816
N16785 X-25.571 Y-18.499 Z-7.738
N16790 X-25.649 Y-18.563 Z-7.649
N16795 X-25.718 Y-18.62 Z-7.548
N16800 X-25.778 Y-18.67 Z-7.438
N16805 X-25.828 Y-18.711 Z-7.321
N16810 X-25.868 Y-18.744 Z-7.196
N16815 X-25.897 Y-18.767 Z-7.067
N16820 X-25.914 Y-18.782 Z-6.934
N16825 X-25.92 Y-18.787 Z-6.8
N16830 G0 Z5.
N16835 G1 X-27.853 Y18.585 F5000.
N16840 G0 Z-5.6
N16845 G1 Z-6.8 F2160.
N16850 X-27.847 Y18.581 Z-6.934
N16855 X-27.827 Y18.569 Z-7.067
N16860 X-27.795 Y18.55 Z-7.196
N16865 X-27.751 Y18.524 Z-7.321
N16870 X-27.695 Y18.491 Z-7.438
N16875 X-27.628 Y18.451 Z-7.548
N16880 X-27.551 Y18.405 Z-7.649
N16885 X-27.465 Y18.354 Z-7.738
N16890 X-27.371 Y18.298 Z-7.816
N16895 X-27.269 Y18.237 Z-7.881
N16900 X-27.162 Y18.174 Z-7.933
N16905 X-27.051 Y18.108 Z-7.97
N16910 X-26.937 Y18.04 Z-7.992
N16915 X-26.822 Y17.971 Z-8.
N16920 G3 X-26.068 Y17.75 I0.809 J1.36
N16925 G1 X-19.596
N16930 X-18.316 Y17.814
N16935 X-17.034 Y17.816
N16940 X-15.753 Y17.84
N16945 X-14.471 Y17.869
N16950 X-13.19 Y17.898
N16955 X-11.908 Y17.922
N16960 X-10.626 Y17.942
N16965 X-9.345 Y17.957
N16970 X-8.063 Y17.969
N16975 X-6.781 Y17.978
N16980 X-5.499 Y17.984
N16985 X-4.218 Y17.989
N16990 X-1.654 Y17.995
N16995 X2.191 Y17.998
N17000 X11.164 Y18.
N17005 X13.728
N17010 X15.009 Y17.998
N17015 X16.291 Y17.988
N17020 X17.572 Y17.949
N17025 X18.85 Y17.852
N17030 X19.375 Y17.78
N17035 X19.523 Y17.763
N17040 X19.672 Y17.753
N17045 X19.821 Y17.75
N17050 X24.277
N17055 G3 X24.998 Y18.023 I-0.042 J1.199
N17060 G1 X25.102 Y18.109 Z-7.992
N17065 X25.204 Y18.193 Z-7.97
N17070 X25.304 Y18.275 Z-7.933
N17075 X25.4 Y18.355 Z-7.881
N17080 X25.491 Y18.429 Z-7.816
N17085 X25.575 Y18.499 Z-7.738
N17090 X25.653 Y18.563 Z-7.649
N17095 X25.722 Y18.62 Z-7.548
N17100 X25.782 Y18.67 Z-7.438
N17105 X25.832 Y18.711 Z-7.321
N17110 X25.872 Y18.744 Z-7.196
N17115 X25.901 Y18.767 Z-7.067
N17120 X25.918 Y18.782 Z-6.934
N17125 X25.924 Y18.787 Z-6.8
N17130 G0 Z5.
N17135 G1 X22.1 Y-18.585 F5000.
N17140 G0 Z-5.6
N17145 G1 Z-6.8 F2160.
N17150 X22.094 Y-18.581 Z-6.934
N17155 X22.074 Y-18.569 Z-7.067
N17160 X22.042 Y-18.55 Z-7.196
N17165 X21.998 Y-18.524 Z-7.321
N17170 X21.942 Y-18.491 Z-7.438
N17175 X21.875 Y-18.451 Z-7.548
N17180 X21.798 Y-18.405 Z-7.649
N17185 X21.712 Y-18.354 Z-7.738
N17190 X21.618 Y-18.298 Z-7.816
N17195 X21.516 Y-18.237 Z-7.881
N17200 X21.409 Y-18.174 Z-7.933
N17205 X21.298 Y-18.108 Z-7.97
N17210 X21.184 Y-18.04 Z-7.992
N17215 X21.069 Y-17.971 Z-8.
N17220 G3 X20.315 Y-17.75 I-0.809 J-1.36
N17225 G1 X-19.86
N17230 G3 X-20.582 Y-18.023 I0.042 J-1.199
N17235 G1 X-20.685 Y-18.109 Z-7.992
N17240 X-20.788 Y-18.193 Z-7.97
N17245 X-20.887 Y-18.275 Z-7.933
N17250 X-20.983 Y-18.355 Z-7.881
N17255 X-21.074 Y-18.429 Z-7.816
N17260 X-21.159 Y-18.499 Z-7.738
N17265 X-21.236 Y-18.563 Z-7.649
N17270 X-21.306 Y-18.62 Z-7.548
N17275 X-21.366 Y-18.67 Z-7.438
N17280 X-21.416 Y-18.711 Z-7.321
N17285 X-21.456 Y-18.744 Z-7.196
N17290 X-21.484 Y-18.767 Z-7.067
N17295 X-21.502 Y-18.782 Z-6.934
N17300 X-21.508 Y-18.787 Z-6.8
N17305 G0 Z5.
N17310 G1 X-21.381 Y18.585 F5000.
N17315 G0 Z-5.6
N17320 G1 Z-6.8 F2160.
N17325 X-21.375 Y18.581 Z-6.934
N17330 X-21.355 Y18.569 Z-7.067
N17335 X-21.323 Y18.55 Z-7.196
N17340 X-21.279 Y18.524 Z-7.321
N17345 X-21.223 Y18.491 Z-7.438
N17350 X-21.156 Y18.451 Z-7.548
N17355 X-21.079 Y18.405 Z-7.649
N17360 X-20.993 Y18.354 Z-7.738
N17365 X-20.898 Y18.298 Z-7.816
N17370 X-20.797 Y18.237 Z-7.881
N17375 X-20.69 Y18.174 Z-7.933
N17380 X-20.579 Y18.108 Z-7.97
N17385 X-20.465 Y18.04 Z-7.992
N17390 X-20.35 Y17.971 Z-8.
N17395 G3 X-19.596 Y17.75 I0.809 J1.36
N17400 G1 X19.821
N17405 G3 X20.542 Y18.023 I-0.042 J1.199
N17410 G1 X20.646 Y18.109 Z-7.992
N17415 X20.748 Y18.193 Z-7.97
N17420 X20.848 Y18.275 Z-7.933
N17425 X20.944 Y18.354 Z-7.881
N17430 X21.035 Y18.429 Z-7.816
N17435 X21.119 Y18.499 Z-7.738
N17440 X21.197 Y18.563 Z-7.649
N17445 X21.266 Y18.62 Z-7.548
N17450 X21.326 Y18.67 Z-7.438
N17455 X21.376 Y18.711 Z-7.321
N17460 X21.416 Y18.744 Z-7.196
N17465 X21.445 Y18.767 Z-7.067
N17470 X21.462 Y18.782 Z-6.934
N17475 X21.468 Y18.787 Z-6.8
N17480 G0 Z15.
N17485 M9
N17490 M5

(2D Contour8)
N17495 M1
N17500 T6 M6
(Designed to Cut Aluminium, reduced neck allows improved reach )
N17505 S10000 M3
N17510 G54
N17515 M8
N17520 G0 G43 Z15. H6 F5000.
N17525 G1 X-13.784 Y3.102
N17530 T7
N17535 G0 Z5.
N17540 G1 Z1. F600.
N17545 Z-2.398
N17550 G18 G3 X-14.386 Z-3. I-0.602 K0. F1160.
N17555 G1 X-14.988
N17560 G17 G3 X-15.59 Y2.5 I0. J-0.602
N17565 G1 Y-2.5
N17570 G2 X-27.41 I-5.91 J0.
N17575 G1 Y2.5
N17580 G2 X-15.59 I5.91 J0.
N17585 G3 X-14.988 Y1.898 I0.602 J0.
N17590 G1 X-14.386
N17595 G18 G2 X-13.784 Z-2.398 I0. K0.602
N17600 G0 Z5.
N17605 G1 X22.102 Y-10.216 F5000.
N17610 Z1. F600.
N17615 Z-2.398
N17620 G19 G3 Y-9.614 Z-3. J0.602 K0. F1160.
N17625 G1 Y-9.012
N17630 G17 G3 X21.5 Y-8.41 I-0.602 J0.
N17635 G2 X15.59 Y-2.5 I0. J5.91
N17640 G1 Y2.5
N17645 G2 X27.41 I5.91 J0.
N17650 G1 Y-2.5
N17655 G2 X21.5 Y-8.41 I-5.91 J0.
N17660 G3 X20.898 Y-9.012 I0. J-0.602
N17665 G1 Y-9.614
N17670 G19 G2 Y-10.216 Z-2.398 J0. K0.602
N17675 G0 Z15.
N17680 M9
N17685 M5

(Face8 3)
N17690 M1
N17695 T7 M6
N17700 S8820 M3
N17705 G54
N17710 M8
N17715 G17
N17720 G0 G43 Z15. H7 F5000.
N17725 G1 X-21.5 Y0.
N17730 T8
N17735 G0 Z5.
N17740 Z4.
N17745 Z1.
N17750 G1 Z-2. F436.59
N17755 G0 Z-1.5
N17760 G1 Z-3. F436.59
N17765 G0 Z-2.5
N17770 G1 Z-4. F436.59
N17775 G0 Z-3.5
N17780 G1 Z-5. F436.59
N17785 G0 Z-4.5
N17790 G1 Z-6. F436.59
N17795 G0 Z-5.5
N17800 G1 Z-7. F436.59
N17805 G0 Z-6.5
N17810 G1 Z-8. F436.59
N17815 G0 Z-7.5
N17820 G1 Z-9. F436.59
N17825 G0 Z-8.5
N17830 G1 Z-10. F436.59
N17835 G0 Z-9.5
N17840 G1 Z-11. F436.59
N17845 G0 Z5.
N17850 Z-9.
N17855 G1 Z-12. F436.59
N17860 G0 Z-11.5
N17865 G1 Z-13. F436.59
N17870 G0 Z-12.5
N17875 G1 Z-14. F436.59
N17880 G0 Z-13.5
N17885 G1 Z-15. F436.59
N17890 G0 Z-14.5
N17895 G1 Z-16. F436.59
N17900 G0 Z5.
N17905 X21.5
N17910 Z4.
N17915 Z1.
N17920 G1 Z-2. F436.59
N17925 G0 Z-1.5
N17930 G1 Z-3. F436.59
N17935 G0 Z-2.5
N17940 G1 Z-4. F436.59
N17945 G0 Z-3.5
N17950 G1 Z-5. F436.59
N17955 G0 Z-4.5
N17960 G1 Z-6. F436.59
N17965 G0 Z-5.5
N17970 G1 Z-7. F436.59
N17975 G0 Z-6.5
N17980 G1 Z-8. F436.59
N17985 G0 Z-7.5
N17990 G1 Z-9. F436.59
N17995 G0 Z-8.5
N18000 G1 Z-10. F436.59
N18005 G0 Z-9.5
N18010 G1 Z-11. F436.59
N18015 G0 Z5.
N18020 Z-9.
N18025 G1 Z-12. F436.59
N18030 G0 Z-11.5
N18035 G1 Z-13. F436.59
N18040 G0 Z-12.5
N18045 G1 Z-14. F436.59
N18050 G0 Z-13.5
N18055 G1 Z-15. F436.59
N18060 G0 Z-14.5
N18065 G1 Z-16. F436.59
N18070 G0 Z5.
N18075 Z15.
N18080 M9
N18085 M5

(Face8 4)
N18090 M1
N18095 T8 M6
N18100 S1194 M3
N18105 G54
N18110 M8
N18115 G0 G43 Z15. H8 F5000.
N18120 G1 X-21.5 Y0.
N18125 T6
N18130 G0 Z5.
N18135 G98 G84 X-21.5 Y0. Z-13. R4. F835.8
N18140 X21.5
N18145 G80
N18150 G0 Z15.
N18155 M9
N18160 M5

(Face8 5)
N18165 M1
N18170 T6 M6
(Designed to Cut Aluminium, reduced neck allows improved reach )
N18175 S10000 M3
N18180 G54
N18185 M8
N18190 G0 G43 Z15. H6 F5000.
N18195 G1 X-10.602 Y-1.285
N18200 T1
N18205 G0 Z-1.
N18210 G1 Z-2.398 F1160.
N18215 G19 G2 Y-1.887 Z-3. J-0.602 K0.
N18220 G1 Y-2.188
N18225 G17 G3 X-10. Y-2.79 I0.602 J0.
N18230 X-10.243 Y-2.779 Z-3.399 I0. J2.79
N18235 X-10.484 Y-2.748 Z-3.799 I0.243 J2.779
N18240 X-10.722 Y-2.695 Z-4.198 I0.484 J2.748
N18245 X-10.954 Y-2.622 Z-4.598 I0.722 J2.695
N18250 X-11.179 Y-2.529 Z-4.997 I0.954 J2.622
N18255 X-11.395 Y-2.416 Z-5.397 I1.179 J2.529
N18260 X-11.6 Y-2.285 Z-5.796 I1.395 J2.416
N18265 X-11.793 Y-2.137 Z-6.196 I1.6 J2.285
N18270 X-11.973 Y-1.973 Z-6.595 I1.793 J2.137
N18275 X-12.137 Y-1.793 Z-6.995 I1.973 J1.973
N18280 X-12.285 Y-1.6 Z-7.394 I2.137 J1.793
N18285 X-12.416 Y-1.395 Z-7.793 I2.285 J1.6
N18290 X-12.529 Y-1.179 Z-8.193 I2.416 J1.395
N18295 X-12.622 Y-0.954 Z-8.592 I2.529 J1.179
N18300 X-12.695 Y-0.722 Z-8.992 I2.622 J0.954
N18305 X-12.748 Y-0.484 Z-9.391 I2.695 J0.722
N18310 X-12.779 Y-0.243 Z-9.791 I2.748 J0.484
N18315 X-12.79 Y0. Z-10.19 I2.779 J0.243
N18320 X-12.779 Y0.243 Z-10.59 I2.79 J0.
N18325 X-7.213 Y-0.129 Z-10.795 I2.779 J-0.243
N18330 X-12.79 Y0.015 Z-11. I-2.787 J0.129
N18335 X-7.21 Y-0.015 I2.79 J-0.015
N18340 X-12.79 Y0.015 I-2.79 J0.015
N18345 X-12.191 Y-0.59 I0.602 J-0.003
N18350 G1 X-11.89 Y-0.592
N18355 X-11.796 Z-10.993
N18360 X-11.704 Y-0.593 Z-10.971
N18365 X-11.617 Z-10.934
N18370 X-11.536 Y-0.594 Z-10.885
N18375 X-11.465 Z-10.824
N18380 X-11.403 Z-10.752
N18385 X-11.354 Y-0.595 Z-10.671
N18390 X-11.318 Z-10.584
N18395 X-11.296 Z-10.492
N18400 X-11.288 Z-10.398
N18405 G0 Z5.
N18410 Z15.
N18415 G1 X-10.602 Y-1.485 F5000.
N18420 G0 Z-9.
N18425 G1 Z-10.398 F1160.
N18430 G19 G2 Y-2.087 Z-11. J-0.602 K0.
N18435 G1 Y-2.388
N18440 G17 G3 X-10. Y-2.99 I0.602 J0.
N18445 Y2.99 I0. J2.99
N18450 Y-2.99 I0. J-2.99
N18455 X-9.398 Y-2.388 I0. J0.602
N18460 G1 Y-2.087
N18465 G19 G3 Y-1.485 Z-10.398 J0. K0.602
N18470 G0 Z5.
N18475 Z15.
N18480 X-10.602
N18485 Z-9.
N18490 G1 Z-10.398 F1160.
N18495 G2 Y-2.087 Z-11. J-0.602 K0.
N18500 G1 Y-2.388
N18505 G17 G3 X-10. Y-2.99 I0.602 J0.
N18510 Y2.99 I0. J2.99
N18515 Y-2.99 I0. J-2.99
N18520 X-9.398 Y-2.388 I0. J0.602
N18525 G1 Y-2.087
N18530 G19 G3 Y-1.485 Z-10.398 J0. K0.602
N18535 G0 Z15.

N18540 M5
N18545 M9
N18550 X0.
N18555 M30

%
