%
O05422 (ShaftSupportBlockMartin)
(Using high feed G1 F5000. instead of G0.)
(T6 D=6.02 CR=0.2 - ZMIN=-10.5 - bullnose end mill)
(T7 D=10. CR=0. TAPER=45deg - ZMIN=-1.25 - chamfer mill)
(T8 D=4. CR=0.2 - ZMIN=-10.5 - bullnose end mill)
N10 G90 G17
N15 G21

(2D Contour10)
N20 T6 M6
(Designed to Cut Aluminium, reduced neck allows improved reach )
N25 S10000 M3
N30 G54
N35 M8
N40 G0 G43 Z15.1 H6 F5000.
N45 G1 X-0.582 Y0.602
N50 T8
N55 G0 Z5.1
N60 G1 Z-5.298 F600.
N65 G18 G3 X-1.184 Z-5.9 I-0.602 K0. F1160.
N70 G1 X-1.786
N75 G17 G3 X-2.388 Y0. I0. J-0.602
N80 X2.388 I2.388 J0.
N85 X-2.388 I-2.388 J0.
N90 X2.99 I2.689 J0.
N95 X2.979 Y-0.261 I-2.99 J0.
N100 X-2.987 Y0.13 I-2.979 J0.261
N105 X2.99 Y0. I2.987 J-0.13
N110 X2.388 Y0.602 I-0.602 J0.
N115 G1 X1.786
N120 G18 G3 X1.184 Z-5.298 I0. K0.602
N125 G0 Z5.1
N130 X-0.582
N135 G1 Z-0.856 F600.
N140 Z-9.898
N145 G3 X-1.184 Z-10.5 I-0.602 K0. F1160.
N150 G1 X-1.786
N155 G17 G3 X-2.388 Y0. I0. J-0.602
N160 X2.388 I2.388 J0.
N165 X-2.388 I-2.388 J0.
N170 X2.99 I2.689 J0.
N175 X2.979 Y-0.261 I-2.99 J0.
N180 X-2.987 Y0.13 I-2.979 J0.261
N185 X2.99 Y0. I2.987 J-0.13
N190 X2.388 Y0.602 I-0.602 J0.
N195 G1 X1.786
N200 G18 G3 X1.184 Z-9.898 I0. K0.602
N205 G0 Z5.1
N210 G1 X-18.102 Y17.418 F5000.
N215 Z-5.298 F600.
N220 G19 G2 Y16.816 Z-5.9 J-0.602 K0. F1160.
N225 G1 Y16.214
N230 G17 G3 X-17.5 Y15.612 I0.602 J0.
N235 G1 X37.5
N240 G2 X41.112 Y12. I0. J-3.612
N245 G1 Y-12.
N250 G2 X37.5 Y-15.612 I-3.612 J0.
N255 G1 X-17.5
N260 G2 X-21.112 Y-12. I0. J3.612
N265 G1 Y12.
N270 G2 X-17.5 Y15.612 I3.612 J0.
N275 X-17.049 Y15.311 I0. J-0.489
N280 G3 X-16.597 Y15.01 I0.451 J0.188
N285 G1 X37.5
N290 G2 X40.51 Y12. I0. J-3.01
N295 G1 Y-12.
N300 G2 X37.5 Y-15.01 I-3.01 J0.
N305 G1 X-17.5
N310 G2 X-20.51 Y-12. I0. J3.01
N315 G1 Y12.
N320 G2 X-17.5 Y15.01 I3.01 J0.
N325 G1 X37.5
N330 G2 X40.51 Y12. I0. J-3.01
N335 G1 Y-12.
N340 G2 X37.5 Y-15.01 I-3.01 J0.
N345 G1 X-17.5
N350 G2 X-20.51 Y-12. I0. J3.01
N355 G1 Y12.
N360 G2 X-17.5 Y15.01 I3.01 J0.
N365 G1 X-16.597
N370 G3 X-15.995 Y15.612 I0. J0.602
N375 G1 Y16.214
N380 G19 G3 Y16.816 Z-5.298 J0. K0.602
N385 G0 Z5.1
N390 G1 X-18.102 Y17.418 F5000.
N395 Z-0.856 F600.
N400 Z-9.898
N405 G2 Y16.816 Z-10.5 J-0.602 K0. F1160.
N410 G1 Y16.214
N415 G17 G3 X-17.5 Y15.612 I0.602 J0.
N420 G1 X37.5
N425 G2 X41.112 Y12. I0. J-3.612
N430 G1 Y-12.
N435 G2 X37.5 Y-15.612 I-3.612 J0.
N440 G1 X-17.5
N445 G2 X-21.112 Y-12. I0. J3.612
N450 G1 Y12.
N455 G2 X-17.5 Y15.612 I3.612 J0.
N460 X-17.049 Y15.311 I0. J-0.489
N465 G3 X-16.597 Y15.01 I0.451 J0.188
N470 G1 X37.5
N475 G2 X40.51 Y12. I0. J-3.01
N480 G1 Y-12.
N485 G2 X37.5 Y-15.01 I-3.01 J0.
N490 G1 X-17.5
N495 G2 X-20.51 Y-12. I0. J3.01
N500 G1 Y12.
N505 G2 X-17.5 Y15.01 I3.01 J0.
N510 G1 X37.5
N515 G2 X40.51 Y12. I0. J-3.01
N520 G1 Y-12.
N525 G2 X37.5 Y-15.01 I-3.01 J0.
N530 G1 X-17.5
N535 G2 X-20.51 Y-12. I0. J3.01
N540 G1 Y12.
N545 G2 X-17.5 Y15.01 I3.01 J0.
N550 G1 X-16.597
N555 G3 X-15.995 Y15.612 I0. J0.602
N560 G1 Y16.214
N565 G19 G3 Y16.816 Z-9.898 J0. K0.602
N570 G0 Z15.1
N575 M9
N580 M5

(2D Contour11)
N585 M1
N590 T8 M6
(Designed to Cut Aluminium, reduced neck allows improved reach)
N595 S10000 M3
N600 G54
N605 M8
N610 G17
N615 G0 G43 Z15.1 H8 F5000.
N620 G1 X22.471 Y-4.446
N625 T7
N630 G0 Z5.1
N635 G1 Z4.85 F500.
N640 Z-3.25
N645 X22.478 Y-4.443 Z-3.328 F920.
N650 X22.499 Y-4.434 Z-3.403
N655 X22.533 Y-4.42 Z-3.472
N660 X22.579 Y-4.401 Z-3.533
N665 X22.635 Y-4.377 Z-3.583
N670 X22.698 Y-4.35 Z-3.62
N675 X22.768 Y-4.321 Z-3.642
N680 X22.84 Y-4.291 Z-3.65
N685 X23.208 Y-4.136
N690 G3 X23.422 Y-3.612 I-0.155 J0.369
N695 X22.5 Y-3. I-0.922 J-0.388
N700 G1 X10.5
N705 G3 Y-5. I0. J-1.
N710 G1 X22.5
N715 G3 X23.422 Y-3.612 I0. J1.
N720 X22.898 Y-3.399 I-0.369 J-0.155
N725 G1 X22.529 Y-3.554
N730 X22.457 Y-3.584 Z-3.642
N735 X22.388 Y-3.613 Z-3.62
N740 X22.324 Y-3.64 Z-3.583
N745 X22.268 Y-3.663 Z-3.533
N750 X22.223 Y-3.683 Z-3.472
N755 X22.189 Y-3.697 Z-3.403
N760 X22.168 Y-3.706 Z-3.328
N765 X22.16 Y-3.709 Z-3.25
N770 G0 Z5.1
N775 G1 X22.471 Y-4.446 F5000.
N780 Z1.168 F500.
N785 Z-7.
N790 X22.478 Y-4.443 Z-7.078 F920.
N795 X22.499 Y-4.434 Z-7.153
N800 X22.533 Y-4.42 Z-7.222
N805 X22.579 Y-4.401 Z-7.283
N810 X22.635 Y-4.377 Z-7.333
N815 X22.698 Y-4.35 Z-7.37
N820 X22.768 Y-4.321 Z-7.392
N825 X22.84 Y-4.291 Z-7.4
N830 X23.208 Y-4.136
N835 G3 X23.422 Y-3.612 I-0.155 J0.369
N840 X22.5 Y-3. I-0.922 J-0.388
N845 G1 X10.5
N850 G3 Y-5. I0. J-1.
N855 G1 X22.5
N860 G3 X23.422 Y-3.612 I0. J1.
N865 X22.898 Y-3.399 I-0.369 J-0.155
N870 G1 X22.529 Y-3.554
N875 X22.457 Y-3.584 Z-7.392
N880 X22.388 Y-3.613 Z-7.37
N885 X22.324 Y-3.64 Z-7.333
N890 X22.268 Y-3.663 Z-7.283
N895 X22.223 Y-3.683 Z-7.222
N900 X22.189 Y-3.697 Z-7.153
N905 X22.168 Y-3.706 Z-7.078
N910 X22.16 Y-3.709 Z-7.
N915 G0 Z5.1
N920 G1 X22.471 Y-4.446 F5000.
N925 Z-2.582 F500.
N930 Z-10.1
N935 X22.478 Y-4.443 Z-10.178 F920.
N940 X22.499 Y-4.434 Z-10.253
N945 X22.533 Y-4.42 Z-10.322
N950 X22.579 Y-4.401 Z-10.383
N955 X22.635 Y-4.377 Z-10.433
N960 X22.698 Y-4.35 Z-10.47
N965 X22.768 Y-4.321 Z-10.492
N970 X22.84 Y-4.291 Z-10.5
N975 X23.208 Y-4.136
N980 G3 X23.422 Y-3.612 I-0.155 J0.369
N985 X22.5 Y-3. I-0.922 J-0.388
N990 G1 X10.5
N995 G3 Y-5. I0. J-1.
N1000 G1 X22.5
N1005 G3 X23.422 Y-3.612 I0. J1.
N1010 X22.898 Y-3.399 I-0.369 J-0.155
N1015 G1 X22.529 Y-3.554
N1020 X22.457 Y-3.584 Z-10.492
N1025 X22.388 Y-3.613 Z-10.47
N1030 X22.324 Y-3.64 Z-10.433
N1035 X22.268 Y-3.663 Z-10.383
N1040 X22.223 Y-3.683 Z-10.322
N1045 X22.189 Y-3.697 Z-10.253
N1050 X22.168 Y-3.706 Z-10.178
N1055 X22.16 Y-3.709 Z-10.1
N1060 G0 Z5.1
N1065 G1 X10.1 Y5.2 F5000.
N1070 Z4.85 F500.
N1075 Z-3.25
N1080 G19 G2 Y4.8 Z-3.65 J-0.4 K0. F920.
N1085 G1 Y4.4
N1090 G17 G3 X10.5 Y4. I0.4 J0.
N1095 G1 X22.5
N1100 G3 Y6. I0. J1.
N1105 G1 X10.5
N1110 G3 Y4. I0. J-1.
N1115 X10.9 Y4.4 I0. J0.4
N1120 G1 Y4.8
N1125 G19 G3 Y5.2 Z-3.25 J0. K0.4
N1130 G0 Z5.1
N1135 X10.1
N1140 G1 Z1.168 F500.
N1145 Z-7.
N1150 G2 Y4.8 Z-7.4 J-0.4 K0. F920.
N1155 G1 Y4.4
N1160 G17 G3 X10.5 Y4. I0.4 J0.
N1165 G1 X22.5
N1170 G3 Y6. I0. J1.
N1175 G1 X10.5
N1180 G3 Y4. I0. J-1.
N1185 X10.9 Y4.4 I0. J0.4
N1190 G1 Y4.8
N1195 G19 G3 Y5.2 Z-7. J0. K0.4
N1200 G0 Z5.1
N1205 X10.1
N1210 G1 Z-2.582 F500.
N1215 Z-10.1
N1220 G2 Y4.8 Z-10.5 J-0.4 K0. F920.
N1225 G1 Y4.4
N1230 G17 G3 X10.5 Y4. I0.4 J0.
N1235 G1 X22.5
N1240 G3 Y6. I0. J1.
N1245 G1 X10.5
N1250 G3 Y4. I0. J-1.
N1255 X10.9 Y4.4 I0. J0.4
N1260 G1 Y4.8
N1265 G19 G3 Y5.2 Z-10.1 J0. K0.4
N1270 G0 Z15.1
N1275 M9
N1280 M5

(2D Chamfer1)
N1285 M1
N1290 T7 M6
N1295 S4775 M3
N1300 G54
N1305 M8
N1310 G17
N1315 G0 G43 Z15.1 H7 F5000.
N1320 G1 X23.461 Y-3.722
N1325 T6
N1330 G0 Z5.1
N1335 G1 Z2.1 F333.33
N1340 Z-1.25
N1345 X24.421 Y-3.445 F716.2
N1350 G3 X22.5 Y-2. I-1.921 J-0.555
N1355 G1 X10.5
N1360 G3 Y-6. I0. J-2.
N1365 G1 X22.5
N1370 G3 X24.421 Y-3.445 I0. J2.
N1375 G1 X23.461 Y-3.722
N1380 G0 Z5.1
N1385 Y5.278
N1390 G1 Z2.1 F333.33
N1395 Z-1.25
N1400 X24.421 Y5.555 F716.2
N1405 G3 X22.5 Y7. I-1.921 J-0.555
N1410 G1 X10.5
N1415 G3 Y3. I0. J-2.
N1420 G1 X22.5
N1425 G3 X24.421 Y5.555 I0. J2.
N1430 G1 X23.461 Y5.278
N1435 G0 Z5.1
N1440 G1 X-17.5 Y14. F5000.
N1445 Z2.1 F333.33
N1450 Z-1.25
N1455 Y13. F716.2
N1460 X37.5
N1465 G2 X38.5 Y12. I0. J-1.
N1470 G1 Y-12.
N1475 G2 X37.5 Y-13. I-1. J0.
N1480 G1 X-17.5
N1485 G2 X-18.5 Y-12. I0. J1.
N1490 G1 Y12.
N1495 G2 X-17.5 Y13. I1. J0.
N1500 G1 Y14.
N1505 G0 Z5.1
N1510 G1 X4. Y0. F5000.
N1515 Z2.1 F333.33
N1520 Z-1.25
N1525 X5. F716.2
N1530 G3 X-5. I-5. J0.
N1535 X5. I5. J0.
N1540 G1 X4.
N1545 G0 Z15.1

N1550 M5
N1555 M9
N1560 X10.
N1565 M30

%
